(Generated with dxf2code)
(Created from file: I:/Drawing.dxf)
G21 (Unit in mm)
G90 (Absolute distance mode)
G64 P0.01 (Exact Path 0.001 tol.)
G17
G40 (Cancel diameter comp.)
G49 (Cancel length comp.)
T1M6 (Tool change to T1)
M8 (Coolant flood on)
; S5000M03 (Spindle 5000rpm cw)
G0 Z 145.000 
G0 X 163.470 Y  39.666
G0 Z 135.500 
F150
G1 Z 135.000
F400
G1 X 163.847 Y  39.408
G1 Z 135.500
G0 Z 145.000 
G40
G0 X 163.470 Y  39.666
G0 Z 135.500 
F150
G1 Z 135.000
F400
G1 X 164.085 Y  39.448
G1 X 163.470 Y  39.666
G1 X 164.323 Y  39.904
G1 X 163.509 Y  40.262
G1 X 164.323 Y  39.904
G1 X 163.470 Y  39.666
G1 Z 135.500
G0 Z 145.000 
G40
G0 X 163.470 Y  39.666
G0 Z 135.500 
F150
G1 Z 135.000
F400
G1 X 163.509 Y  40.262
G1 X 164.303 Y  40.321
G1 X 164.323 Y  39.904
G1 X 164.085 Y  39.448
G1 X 163.847 Y  39.408
G1 X 164.085 Y  39.448
G1 X 163.470 Y  39.666
G1 Z 135.500
G0 Z 145.000 
G40
G0 X 163.509 Y  40.262
G0 Z 135.500 
F150
G1 Z 135.000
F400
G1 X 163.529 Y  40.460
G1 X 164.303 Y  40.321
G1 X 163.529 Y  40.460
G1 X 164.284 Y  40.778
G1 X 163.589 Y  41.334
G1 X 164.284 Y  51.856
G1 X 163.589 Y  41.334
G1 X 164.284 Y  40.778
G1 X 163.569 Y  41.096
G1 X 164.284 Y  40.778
G1 X 164.303 Y  40.321
G1 X 163.509 Y  40.262
G1 Z 135.500
G0 Z 145.000 
G40
G0 X 163.529 Y  40.460
G0 Z 135.500 
F150
G1 Z 135.000
F400
G1 X 164.303 Y  40.321
G1 X 163.529 Y  40.460
G1 X 163.569 Y  41.096
G1 X 163.589 Y  41.334
G1 X 163.589 Y  51.856
G1 X 164.284 Y  51.856
G1 X 164.284 Y  40.778
G1 X 163.529 Y  40.460
G1 Z 135.500
G0 Z 145.000 
G40
G0 X 159.320 Y  42.148
G0 Z 135.500 
F150
G1 Z 135.000
F400
G1 X 158.864 Y  42.664
G1 X 159.023 Y  43.140
G1 X 159.559 Y  42.743
G1 X 158.864 Y  42.664
G1 X 159.320 Y  42.148
G1 Z 135.500
G0 Z 145.000 
G40
G0 X 158.645 Y  42.088
G0 Z 135.500 
F150
G1 Z 135.000
F400
G1 X 158.864 Y  42.664
G1 X 159.320 Y  42.148
G1 X 158.864 Y  42.664
G1 X 159.559 Y  42.743
G1 X 159.757 Y  43.399
G1 X 159.023 Y  43.140
G1 X 159.559 Y  42.743
G1 X 159.320 Y  42.148
G1 X 158.645 Y  42.088
G1 Z 135.500
G0 Z 145.000 
G40
G0 X 158.407 Y  41.513
G0 Z 135.500 
F150
G1 Z 135.000
F400
G1 X 158.923 Y  41.334
G1 X 158.407 Y  41.513
G1 X 158.645 Y  42.088
G1 X 159.082 Y  41.632
G1 X 158.407 Y  41.513
G1 Z 135.500
G0 Z 145.000 
G40
G0 X 158.189 Y  41.135
G0 Z 135.500 
F150
G1 Z 135.000
F400
G1 X 158.407 Y  41.513
G1 X 158.923 Y  41.334
G1 X 158.407 Y  41.513
G1 X 159.082 Y  41.632
G1 X 159.320 Y  42.148
G1 X 158.645 Y  42.088
G1 X 159.082 Y  41.632
G1 X 158.923 Y  41.334
G1 X 158.189 Y  41.135
G1 Z 135.500
G0 Z 145.000 
G40
G0 X 157.871 Y  40.639
G0 Z 135.500 
F150
G1 Z 135.000
F400
G1 X 158.288 Y  40.381
G1 X 157.871 Y  40.639
G1 X 158.189 Y  41.135
G1 X 158.625 Y  40.857
G1 X 157.871 Y  40.639
G1 Z 135.500
G0 Z 145.000 
G40
G0 X 157.494 Y  40.123
G0 Z 135.500 
F150
G1 Z 135.000
F400
G1 X 157.871 Y  40.639
G1 X 158.288 Y  40.381
G1 X 157.871 Y  40.639
G1 X 158.625 Y  40.857
G1 X 158.923 Y  41.334
G1 X 158.189 Y  41.135
G1 X 158.625 Y  40.857
G1 X 158.288 Y  40.381
G1 X 157.494 Y  40.123
G1 Z 135.500
G0 Z 145.000 
G40
G0 X 157.077 Y  39.587
G0 Z 135.500 
F150
G1 Z 135.000
F400
G1 X 157.454 Y  39.388
G1 X 157.077 Y  39.587
G1 X 157.891 Y  39.885
G1 X 157.494 Y  40.123
G1 X 157.891 Y  39.885
G1 X 157.077 Y  39.587
G1 Z 135.500
G0 Z 145.000 
G40
G0 X 157.355 Y  39.289
G0 Z 135.500 
F150
G1 Z 135.000
F400
G1 X 157.454 Y  39.388
G1 X 157.077 Y  39.587
G1 X 157.494 Y  40.123
G1 X 158.288 Y  40.381
G1 X 157.891 Y  39.885
G1 X 157.454 Y  39.388
G1 X 157.355 Y  39.289
G1 Z 135.500
G0 Z 145.000 
G40
G0 X 157.355 Y  39.289
G0 Z 135.500 
F150
G1 Z 135.000
F400
G1 X 157.077 Y  39.587
G1 Z 135.500
G0 Z 145.000 
G40
G0 X 156.382 Y  40.996
G0 Z 135.500 
F150
G1 Z 135.000
F400
G1 X 156.998 Y  40.897
G1 X 156.382 Y  40.996
G1 X 157.077 Y  46.833
G1 X 157.295 Y  46.972
G1 X 156.382 Y  47.131
G1 X 157.077 Y  46.833
G1 X 157.077 Y  43.359
G1 X 157.097 Y  42.545
G1 X 157.117 Y  42.029
G1 X 157.117 Y  41.929
G1 X 157.156 Y  41.314
G1 X 157.156 Y  41.274
G1 X 156.382 Y  40.996
G1 Z 135.500
G0 Z 145.000 
G40
G0 X 156.382 Y  40.996
G0 Z 135.500 
F150
G1 Z 135.000
F400
G1 X 156.998 Y  40.897
G1 X 156.620 Y  40.818
G1 X 156.998 Y  40.897
G1 X 157.156 Y  41.274
G1 X 156.382 Y  40.996
G1 X 156.382 Y  47.131
G1 X 157.077 Y  46.833
G1 X 156.382 Y  40.996
G1 X 157.077 Y  43.359
G1 X 156.382 Y  40.996
G1 X 157.097 Y  42.545
G1 X 156.382 Y  40.996
G1 X 157.117 Y  42.029
G1 X 156.382 Y  40.996
G1 X 157.117 Y  41.929
G1 X 156.382 Y  40.996
G1 Z 135.500
G0 Z 145.000 
G40
G0 X 156.382 Y  40.996
G0 Z 135.500 
F150
G1 Z 135.000
F400
G1 X 156.620 Y  40.818
G1 X 156.382 Y  40.996
G1 X 157.156 Y  41.314
G1 X 156.382 Y  40.996
G1 Z 135.500
G0 Z 145.000 
G40
G0 X 156.739 Y  41.671
G0 Z 135.500 
F150
G1 Z 135.000
F400
G1 X 156.739 Y  42.029
G1 X 156.739 Y  41.671
G1 Z 135.500
G0 Z 145.000 
G40
G0 X 162.497 Y  45.860
G0 Z 135.500 
F150
G1 Z 135.000
F400
G1 X 166.706 Y  46.039
G1 X 162.497 Y  45.860
G1 X 166.507 Y  45.860
G1 Z 135.500
G0 Z 145.000 
G40
G0 X 161.742 Y  45.821
G0 Z 135.500 
F150
G1 Z 135.000
F400
G1 X 162.497 Y  45.860
G1 X 166.586 Y  46.198
G1 X 166.706 Y  46.039
G1 X 166.507 Y  45.860
G1 X 166.706 Y  46.039
G1 X 162.497 Y  45.860
G1 X 166.586 Y  46.198
G1 X 164.978 Y  46.218
G1 X 166.586 Y  46.198
G1 X 166.586 Y  46.198
G1 X 161.742 Y  45.821
G1 Z 135.500
G0 Z 145.000 
G40
G0 X 161.286 Y  45.781
G0 Z 135.500 
F150
G1 Z 135.000
F400
G1 X 161.028 Y  46.357
G1 X 161.544 Y  46.257
G1 X 162.199 Y  46.218
G1 X 162.497 Y  46.218
G1 X 164.978 Y  46.218
G1 X 166.110 Y  46.575
G1 X 166.586 Y  46.198
G1 X 161.742 Y  45.821
G1 X 166.586 Y  46.198
G1 X 161.742 Y  45.821
G1 X 164.978 Y  46.218
G1 X 161.742 Y  45.821
G1 X 161.286 Y  45.781
G1 Z 135.500
G0 Z 145.000 
G40
G0 X 161.286 Y  45.781
G0 Z 135.500 
F150
G1 Z 135.000
F400
G1 X 164.978 Y  46.218
G1 X 165.614 Y  46.972
G1 X 166.110 Y  46.575
G1 X 164.978 Y  46.218
G1 X 161.286 Y  45.781
G1 Z 135.500
G0 Z 145.000 
G40
G0 X 161.286 Y  45.781
G0 Z 135.500 
F150
G1 Z 135.000
F400
G1 X 161.544 Y  46.257
G1 X 161.286 Y  45.781
G1 X 162.497 Y  46.218
G1 X 161.286 Y  45.781
G1 X 162.199 Y  46.218
G1 X 161.286 Y  45.781
G1 Z 135.500
G0 Z 145.000 
G40
G0 X 160.492 Y  47.071
G0 Z 135.500 
F150
G1 Z 135.000
F400
G1 X 160.988 Y  47.290
G1 X 161.861 Y  47.270
G1 X 160.988 Y  47.290
G1 X 161.524 Y  47.568
G1 X 162.417 Y  47.687
G1 X 161.524 Y  47.568
G1 X 161.861 Y  47.270
G1 X 160.492 Y  47.071
G1 Z 135.500
G0 Z 145.000 
G40
G0 X 160.114 Y  46.893
G0 Z 135.500 
F150
G1 Z 135.000
F400
G1 X 160.889 Y  46.654
G1 X 160.114 Y  46.893
G1 X 160.492 Y  47.071
G1 X 161.365 Y  46.932
G1 X 160.114 Y  46.893
G1 Z 135.500
G0 Z 145.000 
G40
G0 X 159.578 Y  46.774
G0 Z 135.500 
F150
G1 Z 135.000
F400
G1 X 159.598 Y  47.468
G1 X 160.353 Y  47.687
G1 X 159.598 Y  48.203
G1 X 159.598 Y  47.468
G1 X 160.333 Y  47.032
G1 X 159.578 Y  46.774
G1 X 160.333 Y  47.032
G1 X 160.293 Y  46.436
G1 X 159.578 Y  46.774
G1 Z 135.500
G0 Z 145.000 
G40
G0 X 159.578 Y  46.774
G0 Z 135.500 
F150
G1 Z 135.000
F400
G1 X 160.333 Y  47.032
G1 X 159.598 Y  47.468
G1 X 160.353 Y  47.687
G1 X 160.333 Y  47.032
G1 X 159.578 Y  46.774
G1 Z 135.500
G0 Z 145.000 
G40
G0 X 159.519 Y  46.654
G0 Z 135.500 
F150
G1 Z 135.000
F400
G1 X 160.114 Y  46.893
G1 X 160.889 Y  46.654
G1 X 161.365 Y  46.932
G1 X 160.492 Y  47.071
G1 X 161.861 Y  47.270
G1 X 161.365 Y  46.932
G1 X 160.114 Y  46.893
G1 X 159.519 Y  46.654
G1 Z 135.500
G0 Z 145.000 
G40
G0 X 159.519 Y  46.654
G0 Z 135.500 
F150
G1 Z 135.000
F400
G1 X 160.889 Y  46.654
G1 X 159.519 Y  46.654
G1 Z 135.500
G0 Z 145.000 
G40
G0 X 159.559 Y  46.158
G0 Z 135.500 
F150
G1 Z 135.000
F400
G1 X 160.293 Y  46.436
G1 X 160.234 Y  45.860
G1 X 159.559 Y  46.158
G1 Z 135.500
G0 Z 145.000 
G40
G0 X 159.519 Y  45.622
G0 Z 135.500 
F150
G1 Z 135.000
F400
G1 X 160.194 Y  45.662
G1 X 160.114 Y  45.026
G1 X 159.519 Y  45.622
G1 Z 135.500
G0 Z 145.000 
G40
G0 X 162.120 Y  47.885
G0 Z 135.500 
F150
G1 Z 135.000
F400
G1 X 162.358 Y  48.004
G1 X 162.417 Y  47.687
G1 X 162.120 Y  47.885
G1 Z 135.500
G0 Z 145.000 
G40
G0 X 161.524 Y  47.568
G0 Z 135.500 
F150
G1 Z 135.000
F400
G1 X 161.861 Y  47.270
G1 X 160.492 Y  47.071
G1 Z 135.500
G0 Z 145.000 
G40
G0 X 160.988 Y  47.290
G0 Z 135.500 
F150
G1 Z 135.000
F400
G1 X 161.524 Y  47.568
G1 X 162.120 Y  47.885
G1 X 162.417 Y  47.687
G1 X 161.861 Y  47.270
G1 X 160.988 Y  47.290
G1 Z 135.500
G0 Z 145.000 
G40
G0 X 159.598 Y  48.203
G0 Z 135.500 
F150
G1 Z 135.000
F400
G1 X 160.353 Y  48.362
G1 X 159.598 Y  48.362
G1 X 159.598 Y  51.856
G1 X 160.353 Y  51.856
G1 X 160.353 Y  48.362
G1 X 159.598 Y  48.203
G1 Z 135.500
G0 Z 145.000 
G40
G0 X 159.598 Y  48.203
G0 Z 135.500 
F150
G1 Z 135.000
F400
G1 X 159.598 Y  48.362
G1 X 160.353 Y  51.856
G1 X 159.598 Y  48.362
G1 X 160.353 Y  48.362
G1 X 159.598 Y  48.203
G1 X 160.353 Y  48.362
G1 X 160.353 Y  47.687
G1 X 159.598 Y  48.203
G1 Z 135.500
G0 Z 145.000 
G40
G0 X 160.214 Y  52.015
G0 Z 135.500 
F150
G1 Z 135.000
F400
G1 X 160.809 Y  52.710
G1 X 161.306 Y  52.313
G1 X 160.214 Y  52.015
G1 Z 135.500
G0 Z 145.000 
G40
G0 X 152.809 Y  51.697
G0 Z 135.500 
F150
G1 Z 135.000
F400
G1 X 154.020 Y  52.134
G1 X 152.809 Y  51.697
G1 X 153.086 Y  52.193
G1 X 153.722 Y  52.134
G1 X 152.809 Y  51.697
G1 Z 135.500
G0 Z 145.000 
G40
G0 X 152.809 Y  51.697
G0 Z 135.500 
F150
G1 Z 135.000
F400
G1 X 156.104 Y  52.134
G1 X 153.265 Y  51.757
G1 X 156.104 Y  52.134
G1 X 157.216 Y  52.471
G1 X 157.653 Y  52.114
G1 X 153.265 Y  51.757
G1 X 152.809 Y  51.697
G1 X 152.550 Y  52.293
G1 X 153.086 Y  52.193
G1 X 152.809 Y  51.697
G1 X 156.104 Y  52.134
G1 X 154.020 Y  52.134
G1 X 153.722 Y  52.134
G1 X 152.809 Y  51.697
G1 Z 135.500
G0 Z 145.000 
G40
G0 X 153.265 Y  51.757
G0 Z 135.500 
F150
G1 Z 135.000
F400
G1 X 157.653 Y  52.114
G1 X 157.772 Y  51.955
G1 X 157.553 Y  51.796
G1 X 157.772 Y  51.955
G1 X 154.020 Y  51.796
G1 X 157.653 Y  52.114
G1 X 156.104 Y  52.134
G1 X 157.653 Y  52.114
G1 X 154.020 Y  51.796
G1 X 153.265 Y  51.757
G1 Z 135.500
G0 Z 145.000 
G40
G0 X 154.298 Y  47.131
G0 Z 135.500 
F150
G1 Z 135.000
F400
G1 X 156.739 Y  47.488
G1 X 156.739 Y  47.131
G1 X 154.298 Y  47.131
G1 Z 135.500
G0 Z 145.000 
G40
G0 X 154.298 Y  47.131
G0 Z 135.500 
F150
G1 Z 135.000
F400
G1 X 154.298 Y  47.488
G1 X 156.739 Y  47.488
G1 X 156.739 Y  47.131
G1 X 156.739 Y  47.488
G1 X 154.298 Y  47.131
G1 Z 135.500
G0 Z 145.000 
G40
G0 X 156.382 Y  47.131
G0 Z 135.500 
F150
G1 Z 135.000
F400
G1 X 157.653 Y  47.310
G1 X 156.243 Y  47.488
G1 X 157.275 Y  47.766
G1 X 157.534 Y  47.508
G1 X 157.653 Y  47.310
G1 X 156.382 Y  47.131
G1 Z 135.500
G0 Z 145.000 
G40
G0 X 156.382 Y  47.131
G0 Z 135.500 
F150
G1 Z 135.000
F400
G1 X 156.243 Y  47.488
G1 X 157.534 Y  47.508
G1 X 156.243 Y  47.488
G1 X 157.275 Y  47.766
G1 X 156.720 Y  48.143
G1 X 156.243 Y  47.488
G1 X 157.653 Y  47.310
G1 X 156.382 Y  47.131
G1 X 157.653 Y  47.310
G1 X 157.295 Y  46.972
G1 X 156.382 Y  47.131
G1 Z 135.500
G0 Z 145.000 
G40
G0 X 156.739 Y  47.488
G0 Z 135.500 
F150
G1 Z 135.000
F400
G1 X 156.739 Y  47.488
G1 Z 135.500
G0 Z 145.000 
G40
G0 X 156.739 Y  47.131
G0 Z 135.500 
F150
G1 Z 135.000
F400
G1 X 156.739 Y  47.488
G1 X 156.739 Y  47.131
G1 Z 135.500
G0 Z 145.000 
G40
G0 X 157.950 Y  46.198
G0 Z 135.500 
F150
G1 Z 135.000
F400
G1 X 160.353 Y  46.337
G1 X 160.889 Y  46.654
G1 X 159.519 Y  46.654
G1 X 158.983 Y  46.476
G1 X 158.546 Y  46.337
G1 X 157.950 Y  46.198
G1 Z 135.500
G0 Z 145.000 
G40
G0 X 157.950 Y  46.198
G0 Z 135.500 
F150
G1 Z 135.000
F400
G1 X 158.546 Y  46.337
G1 X 160.353 Y  46.337
G1 X 158.546 Y  46.337
G1 X 160.353 Y  46.337
G1 X 158.983 Y  46.476
G1 X 160.889 Y  46.654
G1 X 158.983 Y  46.476
G1 X 160.353 Y  46.337
G1 X 157.950 Y  46.198
G1 Z 135.500
G0 Z 145.000 
G40
G0 X 157.315 Y  46.039
G0 Z 135.500 
F150
G1 Z 135.000
F400
G1 X 159.817 Y  46.039
G1 X 157.315 Y  46.039
G1 Z 135.500
G0 Z 145.000 
G40
G0 X 157.494 Y  45.701
G0 Z 135.500 
F150
G1 Z 135.000
F400
G1 X 159.817 Y  46.039
G1 X 157.950 Y  46.198
G1 X 159.817 Y  46.039
G1 X 157.494 Y  45.701
G1 Z 135.500
G0 Z 145.000 
G40
G0 X 157.494 Y  45.701
G0 Z 135.500 
F150
G1 Z 135.000
F400
G1 X 159.539 Y  45.900
G1 X 157.494 Y  45.701
G1 Z 135.500
G0 Z 145.000 
G40
G0 X 157.494 Y  45.701
G0 Z 135.500 
F150
G1 Z 135.000
F400
G1 X 157.315 Y  46.039
G1 X 157.950 Y  46.198
G1 X 160.353 Y  46.337
G1 X 159.817 Y  46.039
G1 X 159.539 Y  45.900
G1 X 159.817 Y  46.039
G1 X 157.494 Y  45.701
G1 Z 135.500
G0 Z 145.000 
G40
G0 X 157.494 Y  45.701
G0 Z 135.500 
F150
G1 Z 135.000
F400
G1 X 159.539 Y  45.900
G1 X 159.003 Y  45.642
G1 X 157.494 Y  45.701
G1 X 158.288 Y  45.364
G1 X 157.494 Y  45.701
G1 Z 135.500
G0 Z 145.000 
G40
G0 X 158.030 Y  44.828
G0 Z 135.500 
F150
G1 Z 135.000
F400
G1 X 157.851 Y  45.046
G1 Z 135.500
G0 Z 145.000 
G40
G0 X 158.030 Y  44.828
G0 Z 135.500 
F150
G1 Z 135.000
F400
G1 X 158.050 Y  44.828
G1 X 157.851 Y  45.046
G1 X 157.494 Y  45.701
G1 X 159.003 Y  45.642
G1 X 158.288 Y  45.364
G1 X 158.050 Y  44.828
G1 X 158.030 Y  44.828
G1 Z 135.500
G0 Z 145.000 
G40
G0 X 158.050 Y  44.828
G0 Z 135.500 
F150
G1 Z 135.000
F400
G1 X 157.851 Y  45.046
G1 X 158.288 Y  45.364
G1 X 159.003 Y  45.642
G1 X 158.427 Y  45.404
G1 X 158.288 Y  45.364
G1 X 157.851 Y  45.046
G1 X 158.050 Y  44.828
G1 Z 135.500
G0 Z 145.000 
G40
G0 X 159.023 Y  43.140
G0 Z 135.500 
F150
G1 Z 135.000
F400
G1 X 159.161 Y  43.657
G1 X 159.757 Y  43.399
G1 X 159.161 Y  43.657
G1 X 159.876 Y  43.815
G1 X 160.015 Y  44.411
G1 X 159.300 Y  44.232
G1 X 159.876 Y  43.815
G1 X 159.757 Y  43.399
G1 X 159.023 Y  43.140
G1 Z 135.500
G0 Z 145.000 
G40
G0 X 159.161 Y  43.657
G0 Z 135.500 
F150
G1 Z 135.000
F400
G1 X 159.757 Y  43.399
G1 X 159.161 Y  43.657
G1 X 159.300 Y  44.232
G1 X 159.876 Y  43.815
G1 X 159.161 Y  43.657
G1 Z 135.500
G0 Z 145.000 
G40
G0 X 159.300 Y  44.232
G0 Z 135.500 
F150
G1 Z 135.000
F400
G1 X 159.420 Y  44.907
G1 X 160.015 Y  44.411
G1 X 159.420 Y  44.907
G1 X 160.114 Y  45.026
G1 X 159.459 Y  45.146
G1 X 160.114 Y  45.026
G1 X 160.015 Y  44.411
G1 X 159.300 Y  44.232
G1 Z 135.500
G0 Z 145.000 
G40
G0 X 159.420 Y  44.907
G0 Z 135.500 
F150
G1 Z 135.000
F400
G1 X 160.015 Y  44.411
G1 X 159.420 Y  44.907
G1 X 159.459 Y  45.146
G1 X 159.519 Y  45.622
G1 X 160.194 Y  45.662
G1 X 160.234 Y  45.860
G1 X 159.519 Y  45.622
G1 X 160.114 Y  45.026
G1 X 159.420 Y  44.907
G1 Z 135.500
G0 Z 145.000 
G40
G0 X 159.519 Y  45.622
G0 Z 135.500 
F150
G1 Z 135.000
F400
G1 X 159.559 Y  46.158
G1 X 159.578 Y  46.774
G1 X 160.293 Y  46.436
G1 X 159.559 Y  46.158
G1 X 160.234 Y  45.860
G1 X 159.519 Y  45.622
G1 Z 135.500
G0 Z 145.000 
G40
G0 X 156.739 Y  42.029
G0 Z 135.500 
F150
G1 Z 135.000
F400
G1 X 156.739 Y  42.029
G1 Z 135.500
G0 Z 145.000 
G40
G0 X 154.298 Y  41.671
G0 Z 135.500 
F150
G1 Z 135.000
F400
G1 X 154.298 Y  42.029
G1 X 156.739 Y  42.029
G1 X 156.739 Y  41.671
G1 X 156.739 Y  42.029
G1 X 154.298 Y  41.671
G1 Z 135.500
G0 Z 145.000 
G40
G0 X 154.298 Y  41.671
G0 Z 135.500 
F150
G1 Z 135.000
F400
G1 X 156.739 Y  42.029
G1 X 156.739 Y  41.671
G1 X 154.298 Y  41.671
G1 Z 135.500
G0 Z 145.000 
G40
G0 X 154.397 Y  40.361
G0 Z 135.500 
F150
G1 Z 135.000
F400
G1 X 154.635 Y  40.540
G1 X 153.861 Y  41.413
G1 X 154.635 Y  40.540
G1 X 154.397 Y  40.361
G1 Z 135.500
G0 Z 145.000 
G40
G0 X 154.000 Y  40.440
G0 Z 135.500 
F150
G1 Z 135.000
F400
G1 X 154.397 Y  40.361
G1 X 154.000 Y  40.440
G1 X 154.635 Y  40.540
G1 X 153.881 Y  41.473
G1 X 154.635 Y  40.540
G1 X 153.920 Y  41.910
G1 X 154.635 Y  40.540
G1 X 153.940 Y  42.624
G1 X 154.635 Y  40.540
G1 X 153.940 Y  42.902
G1 X 154.635 Y  40.540
G1 X 153.940 Y  47.111
G1 X 153.900 Y  47.766
G1 X 153.821 Y  48.143
G1 X 154.794 Y  47.488
G1 X 154.635 Y  47.131
G1 X 154.635 Y  40.540
G1 X 153.821 Y  40.798
G1 X 154.000 Y  40.440
G1 Z 135.500
G0 Z 145.000 
G40
G0 X 154.000 Y  40.440
G0 Z 135.500 
F150
G1 Z 135.000
F400
G1 X 154.635 Y  40.540
G1 X 153.821 Y  40.798
G1 X 153.861 Y  41.413
G1 X 153.881 Y  41.473
G1 X 153.920 Y  41.910
G1 X 153.940 Y  42.624
G1 X 153.940 Y  42.902
G1 X 153.940 Y  47.111
G1 X 154.794 Y  47.488
G1 X 153.900 Y  47.766
G1 X 154.794 Y  47.488
G1 X 153.940 Y  47.111
G1 X 154.635 Y  47.131
G1 X 153.940 Y  47.111
G1 X 154.635 Y  40.540
G1 X 154.000 Y  40.440
G1 Z 135.500
G0 Z 145.000 
G40
G0 X 152.511 Y  44.749
G0 Z 135.500 
F150
G1 Z 135.000
F400
G1 X 152.729 Y  45.026
G1 X 152.312 Y  45.066
G1 X 152.670 Y  45.582
G1 X 153.444 Y  45.999
G1 X 153.126 Y  45.523
G1 X 152.729 Y  45.026
G1 X 152.511 Y  44.749
G1 Z 135.500
G0 Z 145.000 
G40
G0 X 152.511 Y  44.749
G0 Z 135.500 
F150
G1 Z 135.000
F400
G1 X 152.312 Y  45.066
G1 Z 135.500
G0 Z 145.000 
G40
G0 X 152.312 Y  45.066
G0 Z 135.500 
F150
G1 Z 135.000
F400
G1 X 152.729 Y  45.026
G1 X 152.312 Y  45.066
G1 X 153.126 Y  45.523
G1 X 152.670 Y  45.582
G1 X 153.126 Y  45.523
G1 X 152.312 Y  45.066
G1 Z 135.500
G0 Z 145.000 
G40
G0 X 152.670 Y  45.582
G0 Z 135.500 
F150
G1 Z 135.000
F400
G1 X 152.987 Y  46.118
G1 X 153.444 Y  45.999
G1 X 152.987 Y  46.118
G1 X 153.523 Y  46.178
G1 X 153.821 Y  46.714
G1 X 153.126 Y  46.396
G1 X 153.523 Y  46.178
G1 X 153.444 Y  45.999
G1 X 152.670 Y  45.582
G1 Z 135.500
G0 Z 145.000 
G40
G0 X 152.987 Y  46.118
G0 Z 135.500 
F150
G1 Z 135.000
F400
G1 X 153.444 Y  45.999
G1 X 152.987 Y  46.118
G1 X 153.126 Y  46.396
G1 X 153.523 Y  46.178
G1 X 152.987 Y  46.118
G1 Z 135.500
G0 Z 145.000 
G40
G0 X 153.126 Y  46.396
G0 Z 135.500 
F150
G1 Z 135.000
F400
G1 X 153.364 Y  46.932
G1 X 153.821 Y  46.714
G1 X 153.364 Y  46.932
G1 X 154.099 Y  47.290
G1 X 154.258 Y  47.667
G1 X 153.583 Y  47.508
G1 X 154.099 Y  47.290
G1 X 153.821 Y  46.714
G1 X 153.126 Y  46.396
G1 Z 135.500
G0 Z 145.000 
G40
G0 X 153.364 Y  46.932
G0 Z 135.500 
F150
G1 Z 135.000
F400
G1 X 153.821 Y  46.714
G1 X 153.364 Y  46.932
G1 X 153.583 Y  47.508
G1 X 154.099 Y  47.290
G1 X 153.364 Y  46.932
G1 Z 135.500
G0 Z 145.000 
G40
G0 X 153.583 Y  47.508
G0 Z 135.500 
F150
G1 Z 135.000
F400
G1 X 153.781 Y  48.024
G1 X 154.258 Y  47.667
G1 X 153.781 Y  48.024
G1 X 154.476 Y  48.243
G1 X 154.675 Y  48.818
G1 X 154.754 Y  49.096
G1 X 153.960 Y  48.620
G1 X 154.476 Y  48.243
G1 X 154.258 Y  47.667
G1 X 153.583 Y  47.508
G1 Z 135.500
G0 Z 145.000 
G40
G0 X 153.781 Y  48.024
G0 Z 135.500 
F150
G1 Z 135.000
F400
G1 X 154.258 Y  47.667
G1 X 153.781 Y  48.024
G1 X 154.476 Y  48.243
G1 X 153.960 Y  48.620
G1 X 154.119 Y  49.215
G1 X 154.754 Y  49.096
G1 X 153.960 Y  48.620
G1 X 153.781 Y  48.024
G1 Z 135.500
G0 Z 145.000 
G40
G0 X 153.960 Y  48.620
G0 Z 135.500 
F150
G1 Z 135.000
F400
G1 X 154.675 Y  48.818
G1 X 153.960 Y  48.620
G1 Z 135.500
G0 Z 145.000 
G40
G0 X 154.119 Y  49.215
G0 Z 135.500 
F150
G1 Z 135.000
F400
G1 X 154.258 Y  49.811
G1 X 154.317 Y  50.010
G1 X 155.072 Y  50.288
G1 X 154.933 Y  49.692
G1 X 154.119 Y  49.215
G1 X 154.933 Y  49.692
G1 X 154.754 Y  49.096
G1 X 154.119 Y  49.215
G1 Z 135.500
G0 Z 145.000 
G40
G0 X 154.119 Y  49.215
G0 Z 135.500 
F150
G1 Z 135.000
F400
G1 X 154.933 Y  49.692
G1 X 154.317 Y  50.010
G1 X 154.933 Y  49.692
G1 X 154.119 Y  49.215
G1 Z 135.500
G0 Z 145.000 
G40
G0 X 154.258 Y  49.811
G0 Z 135.500 
F150
G1 Z 135.000
F400
G1 X 154.933 Y  49.692
G1 X 154.258 Y  49.811
G1 Z 135.500
G0 Z 145.000 
G40
G0 X 154.317 Y  50.010
G0 Z 135.500 
F150
G1 Z 135.000
F400
G1 X 154.436 Y  50.625
G1 X 155.072 Y  50.288
G1 X 154.436 Y  50.625
G1 X 155.171 Y  50.704
G1 X 155.290 Y  51.300
G1 X 154.516 Y  51.240
G1 X 155.171 Y  50.704
G1 X 155.072 Y  50.288
G1 X 154.317 Y  50.010
G1 Z 135.500
G0 Z 145.000 
G40
G0 X 154.436 Y  50.625
G0 Z 135.500 
F150
G1 Z 135.000
F400
G1 X 155.072 Y  50.288
G1 X 154.436 Y  50.625
G1 X 154.516 Y  51.240
G1 X 155.171 Y  50.704
G1 X 154.436 Y  50.625
G1 Z 135.500
G0 Z 145.000 
G40
G0 X 154.516 Y  51.240
G0 Z 135.500 
F150
G1 Z 135.000
F400
G1 X 154.595 Y  51.856
G1 X 155.290 Y  51.300
G1 X 154.595 Y  51.856
G1 X 154.615 Y  51.955
G1 X 155.389 Y  51.955
G1 X 155.290 Y  51.300
G1 X 154.516 Y  51.240
G1 Z 135.500
G0 Z 145.000 
G40
G0 X 154.516 Y  51.240
G0 Z 135.500 
F150
G1 Z 135.000
F400
G1 X 155.290 Y  51.300
G1 X 154.595 Y  51.856
G1 X 155.389 Y  51.955
G1 Z 135.500
G0 Z 145.000 
G40
G0 X 156.104 Y  52.134
G0 Z 135.500 
F150
G1 Z 135.000
F400
G1 X 156.700 Y  52.868
G1 X 157.216 Y  52.471
G1 X 156.104 Y  52.134
G1 Z 135.500
G0 Z 145.000 
G40
G0 X 154.595 Y  51.856
G0 Z 135.500 
F150
G1 Z 135.000
F400
G1 X 155.389 Y  51.955
G1 X 154.595 Y  51.856
G1 Z 135.500
G0 Z 145.000 
G40
G0 X 154.020 Y  51.796
G0 Z 135.500 
F150
G1 Z 135.000
F400
G1 X 157.772 Y  51.955
G1 X 154.020 Y  51.796
G1 X 157.553 Y  51.796
G1 Z 135.500
G0 Z 145.000 
G40
G0 X 158.149 Y  51.578
G0 Z 135.500 
F150
G1 Z 135.000
F400
G1 X 158.606 Y  51.638
G1 X 161.723 Y  51.995
G1 X 158.149 Y  51.578
G1 X 159.360 Y  52.015
G1 X 160.214 Y  52.015
G1 X 161.723 Y  51.995
G1 X 158.149 Y  51.578
G1 X 159.062 Y  52.035
G1 X 158.427 Y  52.074
G1 X 158.149 Y  51.578
G1 Z 135.500
G0 Z 145.000 
G40
G0 X 158.149 Y  51.578
G0 Z 135.500 
F150
G1 Z 135.000
F400
G1 X 160.214 Y  52.015
G1 X 161.306 Y  52.313
G1 X 161.723 Y  51.995
G1 X 160.214 Y  52.015
G1 X 158.149 Y  51.578
G1 Z 135.500
G0 Z 145.000 
G40
G0 X 158.149 Y  51.578
G0 Z 135.500 
F150
G1 Z 135.000
F400
G1 X 159.062 Y  52.035
G1 X 159.360 Y  52.015
G1 X 158.149 Y  51.578
G1 X 157.891 Y  52.174
G1 X 158.427 Y  52.074
G1 X 158.149 Y  51.578
G1 Z 135.500
G0 Z 145.000 
G40
G0 X 158.606 Y  51.638
G0 Z 135.500 
F150
G1 Z 135.000
F400
G1 X 161.723 Y  51.995
G1 X 161.822 Y  51.856
G1 X 161.643 Y  51.677
G1 X 161.822 Y  51.856
G1 X 159.360 Y  51.677
G1 X 158.606 Y  51.638
G1 Z 135.500
G0 Z 145.000 
G40
G0 X 159.360 Y  51.677
G0 Z 135.500 
F150
G1 Z 135.000
F400
G1 X 161.822 Y  51.856
G1 X 158.606 Y  51.638
G1 X 161.822 Y  51.856
G1 X 159.360 Y  51.677
G1 X 161.643 Y  51.677
G1 Z 135.500
G0 Z 145.000 
G40
G0 X 162.219 Y  51.578
G0 Z 135.500 
F150
G1 Z 135.000
F400
G1 X 163.430 Y  52.015
G1 X 164.740 Y  52.015
G1 X 165.832 Y  52.313
G1 X 164.740 Y  52.015
G1 X 162.656 Y  51.638
G1 X 166.249 Y  51.995
G1 X 166.348 Y  51.856
G1 X 166.170 Y  51.677
G1 X 166.348 Y  51.856
G1 X 163.430 Y  51.677
G1 X 162.656 Y  51.638
G1 X 162.219 Y  51.578
G1 Z 135.500
G0 Z 145.000 
G40
G0 X 162.219 Y  51.578
G0 Z 135.500 
F150
G1 Z 135.000
F400
G1 X 164.740 Y  52.015
G1 X 162.219 Y  51.578
G1 X 161.961 Y  52.174
G1 X 162.477 Y  52.074
G1 X 163.132 Y  52.035
G1 X 163.430 Y  52.015
G1 X 162.219 Y  51.578
G1 Z 135.500
G0 Z 145.000 
G40
G0 X 162.219 Y  51.578
G0 Z 135.500 
F150
G1 Z 135.000
F400
G1 X 164.740 Y  52.015
G1 X 162.219 Y  51.578
G1 X 163.132 Y  52.035
G1 X 162.219 Y  51.578
G1 X 162.477 Y  52.074
G1 X 162.219 Y  51.578
G1 Z 135.500
G0 Z 145.000 
G40
G0 X 162.656 Y  51.638
G0 Z 135.500 
F150
G1 Z 135.000
F400
G1 X 164.740 Y  52.015
G1 X 166.249 Y  51.995
G1 X 164.740 Y  52.015
G1 X 165.336 Y  52.710
G1 X 165.832 Y  52.313
G1 X 166.249 Y  51.995
G1 X 162.656 Y  51.638
G1 Z 135.500
G0 Z 145.000 
G40
G0 X 162.656 Y  51.638
G0 Z 135.500 
F150
G1 Z 135.000
F400
G1 X 164.740 Y  52.015
G1 X 166.249 Y  51.995
G1 X 162.656 Y  51.638
G1 Z 135.500
G0 Z 145.000 
G40
G0 X 163.430 Y  51.677
G0 Z 135.500 
F150
G1 Z 135.000
F400
G1 X 166.348 Y  51.856
G1 X 162.656 Y  51.638
G1 X 166.348 Y  51.856
G1 X 163.430 Y  51.677
G1 X 166.170 Y  51.677
G1 Z 135.500
G0 Z 145.000 
G40
G0 X 167.956 Y  51.240
G0 Z 135.500 
F150
G1 Z 135.000
F400
G1 X 167.698 Y  51.816
G1 X 168.234 Y  51.717
G1 X 168.870 Y  51.677
G1 X 169.167 Y  51.677
G1 X 171.649 Y  51.677
G1 X 172.800 Y  52.035
G1 X 173.257 Y  51.657
G1 X 168.413 Y  51.280
G1 X 173.257 Y  51.657
G1 X 168.413 Y  51.280
G1 X 171.649 Y  51.677
G1 X 168.413 Y  51.280
G1 X 167.956 Y  51.240
G1 Z 135.500
G0 Z 145.000 
G40
G0 X 167.956 Y  51.240
G0 Z 135.500 
F150
G1 Z 135.000
F400
G1 X 171.649 Y  51.677
G1 X 172.284 Y  52.432
G1 X 172.800 Y  52.035
G1 X 171.649 Y  51.677
G1 X 167.956 Y  51.240
G1 Z 135.500
G0 Z 145.000 
G40
G0 X 167.956 Y  51.240
G0 Z 135.500 
F150
G1 Z 135.000
F400
G1 X 168.234 Y  51.717
G1 X 167.956 Y  51.240
G1 X 169.167 Y  51.677
G1 X 167.956 Y  51.240
G1 X 168.870 Y  51.677
G1 X 167.956 Y  51.240
G1 Z 135.500
G0 Z 145.000 
G40
G0 X 168.413 Y  51.280
G0 Z 135.500 
F150
G1 Z 135.000
F400
G1 X 169.167 Y  51.320
G1 X 173.257 Y  51.657
G1 X 173.376 Y  51.499
G1 X 173.178 Y  51.320
G1 X 173.376 Y  51.499
G1 X 169.167 Y  51.320
G1 X 173.257 Y  51.657
G1 X 171.649 Y  51.677
G1 X 173.257 Y  51.657
G1 X 173.257 Y  51.657
G1 X 168.413 Y  51.280
G1 Z 135.500
G0 Z 145.000 
G40
G0 X 169.167 Y  51.320
G0 Z 135.500 
F150
G1 Z 135.000
F400
G1 X 173.376 Y  51.499
G1 X 169.167 Y  51.320
G1 X 173.178 Y  51.320
G1 Z 135.500
G0 Z 145.000 
G40
G0 X 173.773 Y  51.578
G0 Z 135.500 
F150
G1 Z 135.000
F400
G1 X 174.210 Y  51.638
G1 X 174.964 Y  52.015
G1 X 173.773 Y  51.578
G1 X 174.031 Y  52.074
G1 X 174.686 Y  52.035
G1 X 174.964 Y  52.015
G1 X 173.773 Y  51.578
G1 Z 135.500
G0 Z 145.000 
G40
G0 X 173.773 Y  51.578
G0 Z 135.500 
F150
G1 Z 135.000
F400
G1 X 174.686 Y  52.035
G1 X 173.773 Y  51.578
G1 Z 135.500
G0 Z 145.000 
G40
G0 X 173.773 Y  51.578
G0 Z 135.500 
F150
G1 Z 135.000
F400
G1 X 173.515 Y  52.174
G1 X 174.031 Y  52.074
G1 X 173.773 Y  51.578
G1 Z 135.500
G0 Z 145.000 
G40
G0 X 174.210 Y  51.638
G0 Z 135.500 
F150
G1 Z 135.000
F400
G1 X 174.964 Y  51.677
G1 X 179.769 Y  52.015
G1 X 181.615 Y  51.856
G1 X 181.397 Y  51.677
G1 X 181.615 Y  51.856
G1 X 174.964 Y  51.677
G1 X 179.769 Y  52.015
G1 X 181.436 Y  52.074
G1 X 181.496 Y  52.015
G1 X 179.769 Y  52.015
G1 X 180.960 Y  52.451
G1 X 180.444 Y  52.829
G1 X 179.769 Y  52.015
G1 X 174.210 Y  51.638
G1 Z 135.500
G0 Z 145.000 
G40
G0 X 174.964 Y  51.677
G0 Z 135.500 
F150
G1 Z 135.000
F400
G1 X 181.615 Y  51.856
G1 X 181.496 Y  52.015
G1 X 179.769 Y  52.015
G1 X 174.964 Y  52.015
G1 X 174.210 Y  51.638
G1 X 179.769 Y  52.015
G1 X 181.615 Y  51.856
G1 X 174.964 Y  51.677
G1 X 181.397 Y  51.677
G1 Z 135.500
G0 Z 145.000 
G40
G0 X 179.769 Y  52.015
G0 Z 135.500 
F150
G1 Z 135.000
F400
G1 X 180.960 Y  52.451
G1 X 181.436 Y  52.074
G1 X 179.769 Y  52.015
G1 Z 135.500
G0 Z 145.000 
G40
G0 X 180.126 Y  49.573
G0 Z 135.500 
F150
G1 Z 135.000
F400
G1 X 180.126 Y  49.573
G1 Z 135.500
G0 Z 145.000 
G40
G0 X 180.126 Y  49.235
G0 Z 135.500 
F150
G1 Z 135.000
F400
G1 X 180.126 Y  49.573
G1 X 180.126 Y  49.235
G1 Z 135.500
G0 Z 145.000 
G40
G0 X 179.769 Y  49.235
G0 Z 135.500 
F150
G1 Z 135.000
F400
G1 X 179.630 Y  49.573
G1 X 180.920 Y  49.593
G1 X 179.630 Y  49.573
G1 X 180.662 Y  49.851
G1 X 180.106 Y  50.228
G1 X 179.630 Y  49.573
G1 X 181.039 Y  49.414
G1 X 179.769 Y  49.235
G1 X 181.039 Y  49.414
G1 X 180.682 Y  49.057
G1 X 179.769 Y  49.235
G1 Z 135.500
G0 Z 145.000 
G40
G0 X 179.769 Y  49.235
G0 Z 135.500 
F150
G1 Z 135.000
F400
G1 X 181.039 Y  49.414
G1 X 179.630 Y  49.573
G1 X 180.662 Y  49.851
G1 X 180.920 Y  49.593
G1 X 181.039 Y  49.414
G1 X 179.769 Y  49.235
G1 Z 135.500
G0 Z 145.000 
G40
G0 X 180.126 Y  47.369
G0 Z 135.500 
F150
G1 Z 135.000
F400
G1 X 180.126 Y  47.369
G1 Z 135.500
G0 Z 145.000 
G40
G0 X 180.126 Y  47.032
G0 Z 135.500 
F150
G1 Z 135.000
F400
G1 X 180.126 Y  47.369
G1 X 180.126 Y  47.032
G1 Z 135.500
G0 Z 145.000 
G40
G0 X 180.126 Y  45.165
G0 Z 135.500 
F150
G1 Z 135.000
F400
G1 X 180.126 Y  45.165
G1 Z 135.500
G0 Z 145.000 
G40
G0 X 180.126 Y  44.808
G0 Z 135.500 
F150
G1 Z 135.000
F400
G1 X 180.126 Y  45.165
G1 X 180.126 Y  44.808
G1 Z 135.500
G0 Z 145.000 
G40
G0 X 180.126 Y  42.902
G0 Z 135.500 
F150
G1 Z 135.000
F400
G1 X 180.126 Y  42.902
G1 Z 135.500
G0 Z 145.000 
G40
G0 X 180.126 Y  42.545
G0 Z 135.500 
F150
G1 Z 135.000
F400
G1 X 180.126 Y  42.902
G1 X 180.126 Y  42.545
G1 Z 135.500
G0 Z 145.000 
G40
G0 X 179.769 Y  41.929
G0 Z 135.500 
F150
G1 Z 135.000
F400
G1 X 180.384 Y  41.830
G1 X 179.769 Y  41.929
G1 X 180.464 Y  48.918
G1 X 180.682 Y  49.057
G1 X 179.769 Y  49.235
G1 X 180.464 Y  48.918
G1 X 180.464 Y  44.292
G1 X 180.484 Y  43.478
G1 X 180.503 Y  42.962
G1 X 180.523 Y  42.862
G1 X 180.543 Y  42.227
G1 X 180.543 Y  42.188
G1 X 179.769 Y  41.929
G1 Z 135.500
G0 Z 145.000 
G40
G0 X 181.099 Y  39.527
G0 Z 135.500 
F150
G1 Z 135.000
F400
G1 X 181.536 Y  39.686
G1 X 181.278 Y  39.408
G1 X 181.099 Y  39.527
G1 Z 135.500
G0 Z 145.000 
G40
G0 X 179.769 Y  41.929
G0 Z 135.500 
F150
G1 Z 135.000
F400
G1 X 180.384 Y  41.830
G1 X 180.007 Y  41.751
G1 X 180.384 Y  41.830
G1 X 180.543 Y  42.188
G1 X 179.769 Y  41.929
G1 X 179.769 Y  49.235
G1 X 180.464 Y  48.918
G1 X 179.769 Y  41.929
G1 X 180.464 Y  44.292
G1 X 179.769 Y  41.929
G1 X 180.484 Y  43.478
G1 X 179.769 Y  41.929
G1 X 180.503 Y  42.962
G1 X 179.769 Y  41.929
G1 X 180.523 Y  42.862
G1 X 179.769 Y  41.929
G1 Z 135.500
G0 Z 145.000 
G40
G0 X 179.769 Y  41.929
G0 Z 135.500 
F150
G1 Z 135.000
F400
G1 X 180.007 Y  41.751
G1 X 179.769 Y  41.929
G1 X 180.543 Y  42.227
G1 X 179.769 Y  41.929
G1 Z 135.500
G0 Z 145.000 
G40
G0 X 179.709 Y  41.334
G0 Z 135.500 
F150
G1 Z 135.000
F400
G1 X 178.498 Y  41.433
G1 X 179.451 Y  41.433
G1 X 179.709 Y  41.334
G1 Z 135.500
G0 Z 145.000 
G40
G0 X 178.161 Y  41.612
G0 Z 135.500 
F150
G1 Z 135.000
F400
G1 X 179.451 Y  41.433
G1 X 178.498 Y  41.433
G1 X 178.875 Y  41.671
G1 X 178.161 Y  41.612
G1 X 178.498 Y  41.433
G1 X 179.054 Y  41.115
G1 X 179.511 Y  40.818
G1 X 179.769 Y  40.659
G1 X 180.265 Y  40.321
G1 X 181.476 Y  39.944
G1 X 181.536 Y  39.686
G1 X 180.801 Y  39.765
G1 X 181.476 Y  39.944
G1 Z 135.500
G0 Z 145.000 
G40
G0 X 181.536 Y  39.686
G0 Z 135.500 
F150
G1 Z 135.000
F400
G1 X 180.801 Y  39.765
G1 X 181.099 Y  39.527
G1 X 181.536 Y  39.686
G1 Z 135.500
G0 Z 145.000 
G40
G0 X 181.099 Y  39.527
G0 Z 135.500 
F150
G1 Z 135.000
F400
G1 X 181.536 Y  39.686
G1 X 180.801 Y  39.765
G1 X 181.476 Y  39.944
G1 X 180.364 Y  40.222
G1 X 180.265 Y  40.321
G1 X 181.238 Y  40.341
G1 X 179.769 Y  40.659
G1 X 180.761 Y  40.738
G1 X 179.511 Y  40.818
G1 X 180.345 Y  40.996
G1 X 179.054 Y  41.115
G1 X 179.709 Y  41.334
G1 X 178.498 Y  41.433
G1 X 179.451 Y  41.433
G1 X 178.161 Y  41.612
G1 Z 135.500
G0 Z 145.000 
G40
G0 X 178.161 Y  41.612
G0 Z 135.500 
F150
G1 Z 135.000
F400
G1 X 178.498 Y  41.433
G1 X 178.875 Y  41.671
G1 X 179.451 Y  41.433
G1 Z 135.500
G0 Z 145.000 
G40
G0 X 178.161 Y  41.612
G0 Z 135.500 
F150
G1 Z 135.000
F400
G1 X 178.875 Y  41.671
G1 X 179.451 Y  41.433
G1 X 179.709 Y  41.334
G1 X 180.345 Y  40.996
G1 X 180.761 Y  40.738
G1 X 181.238 Y  40.341
G1 X 181.476 Y  39.944
G1 X 180.801 Y  39.765
G1 X 180.364 Y  40.222
G1 X 181.476 Y  39.944
G1 X 180.265 Y  40.321
G1 X 181.238 Y  40.341
G1 X 181.238 Y  40.341
G1 X 180.265 Y  40.321
G1 X 181.238 Y  40.341
G1 X 179.769 Y  40.659
G1 X 180.761 Y  40.738
G1 X 179.511 Y  40.818
G1 X 180.345 Y  40.996
G1 X 179.054 Y  41.115
G1 X 179.709 Y  41.334
G1 X 178.498 Y  41.433
G1 X 179.054 Y  41.115
G1 X 179.451 Y  41.433
G1 Z 135.500
G0 Z 145.000 
G40
G0 X 178.161 Y  41.612
G0 Z 135.500 
F150
G1 Z 135.000
F400
G1 X 178.300 Y  41.850
G1 Z 135.500
G0 Z 145.000 
G40
G0 X 175.679 Y  41.632
G0 Z 135.500 
F150
G1 Z 135.000
F400
G1 X 176.592 Y  41.691
G1 X 177.009 Y  41.413
G1 X 175.679 Y  41.632
G1 Z 135.500
G0 Z 145.000 
G40
G0 X 175.223 Y  41.215
G0 Z 135.500 
F150
G1 Z 135.000
F400
G1 X 175.679 Y  41.632
G1 X 176.017 Y  42.029
G1 X 176.592 Y  41.691
G1 X 175.679 Y  41.632
G1 X 177.009 Y  41.413
G1 X 175.223 Y  41.215
G1 Z 135.500
G0 Z 145.000 
G40
G0 X 174.647 Y  41.751
G0 Z 135.500 
F150
G1 Z 135.000
F400
G1 X 174.905 Y  41.929
G1 X 174.131 Y  42.803
G1 X 174.905 Y  41.929
G1 X 174.647 Y  41.751
G1 Z 135.500
G0 Z 145.000 
G40
G0 X 174.250 Y  41.830
G0 Z 135.500 
F150
G1 Z 135.000
F400
G1 X 174.905 Y  41.929
G1 X 174.091 Y  42.188
G1 X 174.131 Y  42.803
G1 X 174.131 Y  42.862
G1 X 174.190 Y  43.299
G1 X 174.210 Y  44.014
G1 X 174.210 Y  44.292
G1 X 174.210 Y  49.196
G1 X 175.044 Y  49.573
G1 X 174.170 Y  49.851
G1 X 175.044 Y  49.573
G1 X 174.210 Y  49.196
G1 X 174.905 Y  49.235
G1 X 174.210 Y  49.196
G1 X 174.905 Y  41.929
G1 X 174.250 Y  41.830
G1 Z 135.500
G0 Z 145.000 
G40
G0 X 174.250 Y  41.830
G0 Z 135.500 
F150
G1 Z 135.000
F400
G1 X 174.647 Y  41.751
G1 X 174.250 Y  41.830
G1 X 174.905 Y  41.929
G1 X 174.131 Y  42.862
G1 X 174.905 Y  41.929
G1 X 174.190 Y  43.299
G1 X 174.905 Y  41.929
G1 X 174.210 Y  44.014
G1 X 174.905 Y  41.929
G1 X 174.210 Y  44.292
G1 X 174.905 Y  41.929
G1 X 174.210 Y  49.196
G1 X 174.170 Y  49.851
G1 X 174.091 Y  50.228
G1 X 175.044 Y  49.573
G1 X 174.905 Y  49.235
G1 X 174.905 Y  41.929
G1 X 174.091 Y  42.188
G1 X 174.250 Y  41.830
G1 Z 135.500
G0 Z 145.000 
G40
G0 X 174.548 Y  42.545
G0 Z 135.500 
F150
G1 Z 135.000
F400
G1 X 174.548 Y  42.902
G1 X 180.126 Y  42.902
G1 X 180.126 Y  42.545
G1 X 180.126 Y  42.902
G1 X 174.548 Y  42.545
G1 Z 135.500
G0 Z 145.000 
G40
G0 X 174.548 Y  42.545
G0 Z 135.500 
F150
G1 Z 135.000
F400
G1 X 180.126 Y  42.902
G1 X 180.126 Y  42.545
G1 X 174.548 Y  42.545
G1 Z 135.500
G0 Z 145.000 
G40
G0 X 174.488 Y  40.798
G0 Z 135.500 
F150
G1 Z 135.000
F400
G1 X 175.024 Y  41.076
G1 X 176.354 Y  41.155
G1 X 175.223 Y  41.215
G1 X 177.009 Y  41.413
G1 X 177.069 Y  41.254
G1 X 175.223 Y  41.215
G1 X 175.024 Y  41.076
G1 X 175.838 Y  40.818
G1 X 174.488 Y  40.798
G1 X 175.838 Y  40.818
G1 X 175.282 Y  40.540
G1 X 174.488 Y  40.798
G1 Z 135.500
G0 Z 145.000 
G40
G0 X 174.488 Y  40.798
G0 Z 135.500 
F150
G1 Z 135.000
F400
G1 X 175.838 Y  40.818
G1 X 175.024 Y  41.076
G1 X 176.354 Y  41.155
G1 X 176.811 Y  41.115
G1 X 177.069 Y  41.254
G1 X 176.354 Y  41.155
G1 X 177.069 Y  41.254
G1 X 175.223 Y  41.215
G1 X 176.354 Y  41.155
G1 X 175.838 Y  40.818
G1 X 174.488 Y  40.798
G1 Z 135.500
G0 Z 145.000 
G40
G0 X 173.614 Y  40.361
G0 Z 135.500 
F150
G1 Z 135.000
F400
G1 X 173.873 Y  40.500
G1 X 175.282 Y  40.540
G1 X 174.488 Y  40.798
G1 X 173.873 Y  40.500
G1 X 175.004 Y  40.401
G1 X 173.614 Y  40.361
G1 X 175.004 Y  40.401
G1 X 174.428 Y  40.123
G1 X 173.614 Y  40.361
G1 Z 135.500
G0 Z 145.000 
G40
G0 X 173.614 Y  40.361
G0 Z 135.500 
F150
G1 Z 135.000
F400
G1 X 175.004 Y  40.401
G1 X 173.873 Y  40.500
G1 X 175.282 Y  40.540
G1 X 175.004 Y  40.401
G1 X 173.614 Y  40.361
G1 Z 135.500
G0 Z 145.000 
G40
G0 X 172.483 Y  39.904
G0 Z 135.500 
F150
G1 Z 135.000
F400
G1 X 173.873 Y  39.885
G1 X 172.483 Y  39.904
G1 X 173.078 Y  40.143
G1 X 173.614 Y  40.361
G1 X 174.428 Y  40.123
G1 X 172.483 Y  39.904
G1 Z 135.500
G0 Z 145.000 
G40
G0 X 171.828 Y  39.686
G0 Z 135.500 
F150
G1 Z 135.000
F400
G1 X 173.039 Y  39.607
G1 X 172.443 Y  39.448
G1 X 173.039 Y  39.607
G1 X 171.828 Y  39.686
G1 X 173.654 Y  39.805
G1 X 171.828 Y  39.686
G1 Z 135.500
G0 Z 145.000 
G40
G0 X 171.828 Y  39.686
G0 Z 135.500 
F150
G1 Z 135.000
F400
G1 X 173.039 Y  39.607
G1 X 172.006 Y  39.349
G1 X 173.039 Y  39.607
G1 Z 135.500
G0 Z 145.000 
G40
G0 X 172.006 Y  39.349
G0 Z 135.500 
F150
G1 Z 135.000
F400
G1 X 172.443 Y  39.448
G1 X 172.006 Y  39.349
G1 X 171.828 Y  39.686
G1 X 173.873 Y  39.885
G1 X 173.654 Y  39.805
G1 X 173.039 Y  39.607
G1 X 172.006 Y  39.349
G1 Z 135.500
G0 Z 145.000 
G40
G0 X 171.828 Y  39.686
G0 Z 135.500 
F150
G1 Z 135.000
F400
G1 X 172.483 Y  39.904
G1 X 173.873 Y  39.885
G1 X 172.483 Y  39.904
G1 X 174.428 Y  40.123
G1 X 173.078 Y  40.143
G1 X 174.428 Y  40.123
G1 X 173.873 Y  39.885
G1 X 171.828 Y  39.686
G1 Z 135.500
G0 Z 145.000 
G40
G0 X 171.649 Y  40.778
G0 Z 135.500 
F150
G1 Z 135.000
F400
G1 X 172.264 Y  40.679
G1 X 171.649 Y  40.778
G1 X 172.344 Y  46.714
G1 X 172.562 Y  46.853
G1 X 171.649 Y  47.032
G1 X 172.344 Y  46.714
G1 X 172.344 Y  43.121
G1 X 172.364 Y  42.326
G1 X 172.384 Y  41.810
G1 X 172.384 Y  41.711
G1 X 172.423 Y  41.076
G1 X 172.423 Y  41.036
G1 X 171.649 Y  40.778
G1 Z 135.500
G0 Z 145.000 
G40
G0 X 171.649 Y  40.778
G0 Z 135.500 
F150
G1 Z 135.000
F400
G1 X 172.264 Y  40.679
G1 X 171.887 Y  40.579
G1 X 172.264 Y  40.679
G1 X 172.423 Y  41.036
G1 X 171.649 Y  40.778
G1 X 171.649 Y  47.032
G1 X 172.344 Y  46.714
G1 X 171.649 Y  40.778
G1 X 172.344 Y  43.121
G1 X 171.649 Y  40.778
G1 X 172.364 Y  42.326
G1 X 171.649 Y  40.778
G1 X 172.384 Y  41.810
G1 X 171.649 Y  40.778
G1 X 172.384 Y  41.711
G1 X 171.649 Y  40.778
G1 Z 135.500
G0 Z 145.000 
G40
G0 X 171.649 Y  40.778
G0 Z 135.500 
F150
G1 Z 135.000
F400
G1 X 171.887 Y  40.579
G1 X 171.649 Y  40.778
G1 X 172.423 Y  41.076
G1 X 171.649 Y  40.778
G1 Z 135.500
G0 Z 145.000 
G40
G0 X 172.006 Y  41.671
G0 Z 135.500 
F150
G1 Z 135.000
F400
G1 X 172.006 Y  42.029
G1 X 172.006 Y  41.671
G1 Z 135.500
G0 Z 145.000 
G40
G0 X 172.006 Y  42.029
G0 Z 135.500 
F150
G1 Z 135.000
F400
G1 X 172.006 Y  42.029
G1 Z 135.500
G0 Z 145.000 
G40
G0 X 169.207 Y  41.671
G0 Z 135.500 
F150
G1 Z 135.000
F400
G1 X 169.207 Y  42.029
G1 X 172.006 Y  42.029
G1 X 172.006 Y  41.671
G1 X 172.006 Y  42.029
G1 X 169.207 Y  41.671
G1 Z 135.500
G0 Z 145.000 
G40
G0 X 169.207 Y  41.671
G0 Z 135.500 
F150
G1 Z 135.000
F400
G1 X 172.006 Y  42.029
G1 X 172.006 Y  41.671
G1 X 169.207 Y  41.671
G1 Z 135.500
G0 Z 145.000 
G40
G0 X 168.909 Y  40.083
G0 Z 135.500 
F150
G1 Z 135.000
F400
G1 X 169.564 Y  40.182
G1 X 168.750 Y  40.460
G1 X 168.790 Y  41.056
G1 X 168.790 Y  41.115
G1 X 168.850 Y  41.552
G1 X 168.870 Y  42.267
G1 X 168.870 Y  42.545
G1 X 168.870 Y  46.992
G1 X 169.703 Y  47.369
G1 X 168.830 Y  47.647
G1 X 169.703 Y  47.369
G1 X 168.870 Y  46.992
G1 X 169.564 Y  47.032
G1 X 168.870 Y  46.992
G1 X 169.564 Y  40.182
G1 X 168.909 Y  40.083
G1 Z 135.500
G0 Z 145.000 
G40
G0 X 168.909 Y  40.083
G0 Z 135.500 
F150
G1 Z 135.000
F400
G1 X 169.306 Y  40.004
G1 X 168.909 Y  40.083
G1 X 169.564 Y  40.182
G1 X 168.790 Y  41.115
G1 X 169.564 Y  40.182
G1 X 168.850 Y  41.552
G1 X 169.564 Y  40.182
G1 X 168.870 Y  42.267
G1 X 169.564 Y  40.182
G1 X 168.870 Y  42.545
G1 X 169.564 Y  40.182
G1 X 168.870 Y  46.992
G1 X 168.830 Y  47.647
G1 X 168.750 Y  48.024
G1 X 169.703 Y  47.369
G1 X 169.564 Y  47.032
G1 X 169.564 Y  40.182
G1 X 168.750 Y  40.460
G1 X 168.909 Y  40.083
G1 Z 135.500
G0 Z 145.000 
G40
G0 X 169.306 Y  40.004
G0 Z 135.500 
F150
G1 Z 135.000
F400
G1 X 169.564 Y  40.182
G1 X 168.790 Y  41.056
G1 X 169.564 Y  40.182
G1 X 169.306 Y  40.004
G1 Z 135.500
G0 Z 145.000 
G40
G0 X 167.381 Y  44.590
G0 Z 135.500 
F150
G1 Z 135.000
F400
G1 X 167.182 Y  44.848
G1 X 167.778 Y  45.126
G1 X 167.520 Y  45.404
G1 X 167.778 Y  45.126
G1 X 167.182 Y  44.848
G1 X 167.381 Y  44.590
G1 Z 135.500
G0 Z 145.000 
G40
G0 X 167.361 Y  44.590
G0 Z 135.500 
F150
G1 Z 135.000
F400
G1 X 167.381 Y  44.590
G1 X 167.182 Y  44.848
G1 X 167.520 Y  45.404
G1 X 168.155 Y  45.622
G1 X 167.778 Y  45.126
G1 X 167.381 Y  44.590
G1 X 167.361 Y  44.590
G1 Z 135.500
G0 Z 145.000 
G40
G0 X 167.361 Y  44.590
G0 Z 135.500 
F150
G1 Z 135.000
F400
G1 X 167.182 Y  44.848
G1 Z 135.500
G0 Z 145.000 
G40
G0 X 167.520 Y  45.404
G0 Z 135.500 
F150
G1 Z 135.000
F400
G1 X 167.837 Y  45.940
G1 X 168.155 Y  45.622
G1 X 167.837 Y  45.940
G1 X 168.473 Y  46.099
G1 X 168.711 Y  46.515
G1 X 168.115 Y  46.476
G1 X 168.473 Y  46.099
G1 X 168.155 Y  45.622
G1 X 167.520 Y  45.404
G1 Z 135.500
G0 Z 145.000 
G40
G0 X 167.837 Y  45.940
G0 Z 135.500 
F150
G1 Z 135.000
F400
G1 X 168.155 Y  45.622
G1 X 167.837 Y  45.940
G1 X 168.115 Y  46.476
G1 X 168.473 Y  46.099
G1 X 167.837 Y  45.940
G1 Z 135.500
G0 Z 145.000 
G40
G0 X 168.115 Y  46.476
G0 Z 135.500 
F150
G1 Z 135.000
F400
G1 X 168.711 Y  46.515
G1 X 169.009 Y  47.071
G1 X 168.393 Y  47.111
G1 X 169.306 Y  47.667
G1 X 168.631 Y  47.687
G1 X 169.545 Y  48.223
G1 X 169.306 Y  47.667
G1 X 169.267 Y  47.607
G1 X 169.009 Y  47.071
G1 X 168.155 Y  46.575
G1 X 168.711 Y  46.515
G1 X 168.155 Y  46.575
G1 X 168.115 Y  46.476
G1 Z 135.500
G0 Z 145.000 
G40
G0 X 168.155 Y  46.575
G0 Z 135.500 
F150
G1 Z 135.000
F400
G1 X 168.711 Y  46.515
G1 X 168.155 Y  46.575
G1 X 168.393 Y  47.111
G1 X 169.306 Y  47.667
G1 X 168.631 Y  47.687
G1 X 168.870 Y  48.263
G1 X 169.545 Y  48.223
G1 X 168.631 Y  47.687
G1 X 168.393 Y  47.111
G1 X 169.009 Y  47.071
G1 X 168.155 Y  46.575
G1 Z 135.500
G0 Z 145.000 
G40
G0 X 168.393 Y  47.111
G0 Z 135.500 
F150
G1 Z 135.000
F400
G1 X 169.267 Y  47.607
G1 X 168.393 Y  47.111
G1 Z 135.500
G0 Z 145.000 
G40
G0 X 169.207 Y  47.032
G0 Z 135.500 
F150
G1 Z 135.000
F400
G1 X 169.207 Y  47.369
G1 X 172.006 Y  47.369
G1 X 172.006 Y  47.032
G1 X 172.006 Y  47.369
G1 X 169.207 Y  47.032
G1 Z 135.500
G0 Z 145.000 
G40
G0 X 169.207 Y  47.032
G0 Z 135.500 
F150
G1 Z 135.000
F400
G1 X 172.006 Y  47.369
G1 X 172.006 Y  47.032
G1 X 169.207 Y  47.032
G1 Z 135.500
G0 Z 145.000 
G40
G0 X 168.870 Y  48.263
G0 Z 135.500 
F150
G1 Z 135.000
F400
G1 X 169.068 Y  48.838
G1 X 170.001 Y  49.414
G1 X 169.227 Y  49.434
G1 X 169.068 Y  48.838
G1 X 169.783 Y  48.799
G1 X 168.870 Y  48.263
G1 X 169.783 Y  48.799
G1 X 169.545 Y  48.223
G1 X 168.870 Y  48.263
G1 Z 135.500
G0 Z 145.000 
G40
G0 X 168.870 Y  48.263
G0 Z 135.500 
F150
G1 Z 135.000
F400
G1 X 169.783 Y  48.799
G1 X 169.068 Y  48.838
G1 X 170.001 Y  49.414
G1 X 169.783 Y  48.799
G1 X 168.870 Y  48.263
G1 Z 135.500
G0 Z 145.000 
G40
G0 X 169.227 Y  49.434
G0 Z 135.500 
F150
G1 Z 135.000
F400
G1 X 169.366 Y  49.950
G1 X 170.259 Y  50.248
G1 X 169.505 Y  50.565
G1 X 169.366 Y  49.950
G1 X 170.081 Y  49.672
G1 X 169.227 Y  49.434
G1 X 170.081 Y  49.672
G1 X 170.001 Y  49.414
G1 X 169.227 Y  49.434
G1 Z 135.500
G0 Z 145.000 
G40
G0 X 169.227 Y  49.434
G0 Z 135.500 
F150
G1 Z 135.000
F400
G1 X 170.081 Y  49.672
G1 X 169.366 Y  49.950
G1 X 170.259 Y  50.248
G1 X 170.081 Y  49.672
G1 X 169.227 Y  49.434
G1 Z 135.500
G0 Z 145.000 
G40
G0 X 169.505 Y  50.565
G0 Z 135.500 
F150
G1 Z 135.000
F400
G1 X 169.644 Y  51.161
G1 X 170.557 Y  51.499
G1 X 169.644 Y  51.161
G1 X 170.418 Y  50.843
G1 X 169.505 Y  50.565
G1 X 170.418 Y  50.843
G1 X 170.259 Y  50.248
G1 X 169.505 Y  50.565
G1 Z 135.500
G0 Z 145.000 
G40
G0 X 169.505 Y  50.565
G0 Z 135.500 
F150
G1 Z 135.000
F400
G1 X 170.418 Y  50.843
G1 X 169.644 Y  51.161
G1 X 169.703 Y  51.499
G1 X 170.557 Y  51.499
G1 X 170.418 Y  50.843
G1 X 169.505 Y  50.565
G1 Z 135.500
G0 Z 145.000 
G40
G0 X 172.006 Y  47.369
G0 Z 135.500 
F150
G1 Z 135.000
F400
G1 X 172.006 Y  47.369
G1 Z 135.500
G0 Z 145.000 
G40
G0 X 172.006 Y  47.032
G0 Z 135.500 
F150
G1 Z 135.000
F400
G1 X 172.006 Y  47.369
G1 X 172.006 Y  47.032
G1 Z 135.500
G0 Z 145.000 
G40
G0 X 171.649 Y  47.032
G0 Z 135.500 
F150
G1 Z 135.000
F400
G1 X 171.510 Y  47.369
G1 X 172.800 Y  47.389
G1 X 171.510 Y  47.369
G1 X 172.542 Y  47.647
G1 X 171.986 Y  48.024
G1 X 171.510 Y  47.369
G1 X 172.920 Y  47.190
G1 X 171.649 Y  47.032
G1 X 172.920 Y  47.190
G1 X 172.562 Y  46.853
G1 X 171.649 Y  47.032
G1 Z 135.500
G0 Z 145.000 
G40
G0 X 171.649 Y  47.032
G0 Z 135.500 
F150
G1 Z 135.000
F400
G1 X 172.920 Y  47.190
G1 X 171.510 Y  47.369
G1 X 172.542 Y  47.647
G1 X 172.800 Y  47.389
G1 X 172.920 Y  47.190
G1 X 171.649 Y  47.032
G1 Z 135.500
G0 Z 145.000 
G40
G0 X 174.548 Y  47.032
G0 Z 135.500 
F150
G1 Z 135.000
F400
G1 X 174.548 Y  47.369
G1 X 180.126 Y  47.369
G1 X 180.126 Y  47.032
G1 X 180.126 Y  47.369
G1 X 174.548 Y  47.032
G1 Z 135.500
G0 Z 145.000 
G40
G0 X 174.548 Y  47.032
G0 Z 135.500 
F150
G1 Z 135.000
F400
G1 X 180.126 Y  47.369
G1 X 180.126 Y  47.032
G1 X 174.548 Y  47.032
G1 Z 135.500
G0 Z 145.000 
G40
G0 X 174.548 Y  49.235
G0 Z 135.500 
F150
G1 Z 135.000
F400
G1 X 174.548 Y  49.573
G1 X 180.126 Y  49.573
G1 X 180.126 Y  49.235
G1 X 180.126 Y  49.573
G1 X 174.548 Y  49.235
G1 Z 135.500
G0 Z 145.000 
G40
G0 X 174.548 Y  49.235
G0 Z 135.500 
F150
G1 Z 135.000
F400
G1 X 180.126 Y  49.573
G1 X 180.126 Y  49.235
G1 X 174.548 Y  49.235
G1 Z 135.500
G0 Z 145.000 
G40
G0 X 176.334 Y  49.414
G0 Z 135.500 
F150
G1 Z 135.000
F400
G1 X 176.831 Y  49.593
G1 X 176.573 Y  49.990
G1 X 177.128 Y  50.149
G1 X 176.573 Y  49.990
G1 X 176.831 Y  49.593
G1 X 176.334 Y  49.414
G1 Z 135.500
G0 Z 145.000 
G40
G0 X 176.334 Y  49.414
G0 Z 135.500 
F150
G1 Z 135.000
F400
G1 X 176.711 Y  49.414
G1 X 176.334 Y  49.414
G1 X 176.573 Y  49.990
G1 X 176.751 Y  50.565
G1 X 177.128 Y  50.149
G1 X 176.831 Y  49.593
G1 X 176.334 Y  49.414
G1 Z 135.500
G0 Z 145.000 
G40
G0 X 176.711 Y  49.414
G0 Z 135.500 
F150
G1 Z 135.000
F400
G1 X 176.831 Y  49.593
G1 Z 135.500
G0 Z 145.000 
G40
G0 X 177.128 Y  50.149
G0 Z 135.500 
F150
G1 Z 135.000
F400
G1 X 176.751 Y  50.565
G1 X 176.791 Y  50.724
G1 X 177.625 Y  51.240
G1 X 176.930 Y  51.340
G1 X 177.823 Y  51.856
G1 X 177.625 Y  51.240
G1 X 176.791 Y  50.724
G1 X 177.386 Y  50.685
G1 X 176.751 Y  50.565
G1 X 177.386 Y  50.685
G1 X 177.128 Y  50.149
G1 Z 135.500
G0 Z 145.000 
G40
G0 X 176.751 Y  50.565
G0 Z 135.500 
F150
G1 Z 135.000
F400
G1 X 177.386 Y  50.685
G1 X 177.386 Y  50.685
G1 X 177.386 Y  50.685
G1 X 176.751 Y  50.565
G1 Z 135.500
G0 Z 145.000 
G40
G0 X 176.751 Y  50.565
G0 Z 135.500 
F150
G1 Z 135.000
F400
G1 X 177.386 Y  50.685
G1 X 176.791 Y  50.724
G1 X 176.930 Y  51.340
G1 X 177.625 Y  51.240
G1 X 177.386 Y  50.685
G1 X 176.751 Y  50.565
G1 Z 135.500
G0 Z 145.000 
G40
G0 X 176.930 Y  51.340
G0 Z 135.500 
F150
G1 Z 135.000
F400
G1 X 177.009 Y  51.856
G1 X 177.823 Y  51.856
G1 X 176.930 Y  51.340
G1 Z 135.500
G0 Z 145.000 
G40
G0 X 174.548 Y  44.808
G0 Z 135.500 
F150
G1 Z 135.000
F400
G1 X 174.548 Y  45.165
G1 X 180.126 Y  45.165
G1 X 180.126 Y  44.808
G1 X 180.126 Y  45.165
G1 X 174.548 Y  44.808
G1 Z 135.500
G0 Z 145.000 
G40
G0 X 174.548 Y  44.808
G0 Z 135.500 
F150
G1 Z 135.000
F400
G1 X 180.126 Y  45.165
G1 X 180.126 Y  44.808
G1 X 174.548 Y  44.808
G1 Z 135.500
G0 Z 145.000 
G40
G0 X 150.000 Y   0.000
M9 (Coolant off)
M5 (Spindle off)
M2 (Prgram end)
