( Code generated by engrave-11.py widget )
( by Lawrence Glaister VE7IT - 2008 )
( Engraving: "O" at 270.0 degrees)
( Fontfile: /usr/share/qcad/fonts/romanc.cxf )
( #1000 = 270.0000 ) ( Safe Z )
( #1000 = 277.0000 ) ( Safe Z )
#1000 = 250.0000 ( Safe Z )
#1001 = 241.7770  ( Engraving Depth Z )
#1002 = 105.0000  ( X Start )
#1003 = 390.0000  ( Y Start )
#1004 = 50.0      ( Circle Radius)
(===================================================================)
G17 G21 G90 G64 P0.003 M3 S3000 M7 F5000
(Arc Buddy w/ diameter 100)
#1 = 0
G1 Z#1000
G1 X495.0000 Y0.0000
G1 Z#1001
G3 X442.7499 Y195.0000 I-390.0000 J-0.0000
O101 while [#1 lt 1]
G2 X442.7499 Y-195.0000 I-337.7499 J-195.0000
G1 X495.0000 Y0.0000
G1 X475.0000 Y0.0000
G2 X475.0000 Y-0.0000 I-25.0000 J-0.0000
G1 Z#1000
G1 X450 Y90 Z#1001  (start a cross)
G1 X450 Y-90
G1 Z#1000
G1 X490 Y0 Z#1001
G1 X410 Y0  (finish a cross)
G1 Y90      (start a square)
G1 X470
G1 Y-90
G1 X410
G1 Y0       (finish a square)
G1 Z#1000
#1 = [#1+1]
O101 endwhile
(G1 X110 Y380)
(F100)
(G1 X105 Y390)
M5 M9 M2

