(Generated with dxf2code)
(Created from file: C:/Documents and Settings/Administrator/桌面/區網共用資料/TEST.dxf)
G21 (Unit in mm)
G90 (Absolute distance mode)
G64 P0.01 (Exact Path 0.001 tol.)
G17
G40 (Cancel diameter comp.)
G49 (Cancel length comp.)
T1M6 (Tool change to T1)
M8 (Coolant flood on)

G0 Z 190.000 
G0 X 212.627 Y -55.741
G0 Z 135.500 
F150
G1 Z 135.000
F3000
G1 X 212.581 Y -55.821
G2 X 212.581 Y -53.655 I   0.625 J   1.083
G1 X 213.814 Y -52.944
G1 Z 135.500
G0 Z 190.000 
G40
G0 X 216.594 Y -54.269
G0 Z 135.500 
F150
G1 Z 135.000
F3000
G1 X 216.611 Y -54.280
G1 X 216.627 Y -54.292
G1 X 228.069 Y -54.292
G1 Z 135.500
G0 Z 190.000 
G40
G0 X 215.687 Y -57.543
G0 Z 135.500 
F150
G1 Z 135.000
F3000
G1 X 215.682 Y -57.505
G1 X 212.627 Y -55.741
G1 Z 135.500
G0 Z 190.000 
G40
G0 X 212.581 Y -55.821
G0 Z 135.500 
F150
G1 Z 135.000
F3000
G1 X 215.701 Y -57.622
G1 X 215.694 Y -57.582
G1 Z 135.500
G0 Z 190.000 
G40
G0 X 221.453 Y -68.400
G0 Z 135.500 
F150
G1 Z 135.000
F3000
G2 X 221.245 Y -68.118 I   8.753 J   6.662
G2 X 215.665 Y -57.601 I  68.590 J  43.134
G1 Z 135.500
G0 Z 190.000 
G40
G0 X 222.121 Y -69.196
G0 Z 135.500 
F150
G1 Z 135.000
F3000
G3 X 240.966 Y -64.022 I   8.085 J   7.458
G1 Z 135.500
G0 Z 190.000 
G40
G0 X 230.206 Y -78.160
G0 Z 135.500 
F150
G1 Z 135.000
F3000
G1 X 230.206 Y -70.629
G1 X 230.206 Y -62.238
G1 Z 135.500
G0 Z 190.000 
G40
G0 X 230.019 Y -65.483
G0 Z 135.500 
F150
G1 Z 135.000
F3000
G1 X 230.019 Y -63.742
G2 X 230.394 Y -63.742 I   0.188 J   2.004
G1 X 230.394 Y -65.483
G3 X 230.019 Y -65.483 I  -0.188 J   3.745
G1 Z 135.500
G0 Z 190.000 
G40
G0 X 230.019 Y -65.358
G0 Z 135.500 
F150
G1 Z 135.000
F3000
G2 X 230.394 Y -65.358 I   0.188 J   3.620
G1 Z 135.500
G0 Z 190.000 
G40
G0 X 230.019 Y -64.863
G0 Z 135.500 
F150
G1 Z 135.000
F3000
G1 X 230.394 Y -64.863
G1 Z 135.500
G0 Z 190.000 
G40
G0 X 230.019 Y -64.113
G0 Z 135.500 
F150
G1 Z 135.000
F3000
G1 X 230.394 Y -64.113
G1 Z 135.500
G0 Z 190.000 
G40
G0 X 230.019 Y -63.867
G0 Z 135.500 
F150
G1 Z 135.000
F3000
G2 X 230.394 Y -63.867 I   0.187 J   2.129
G1 Z 135.500
G0 Z 190.000 
G40
G0 X 229.234 Y -62.710
G0 Z 135.500 
F150
G1 Z 135.000
F3000
G2 X 229.234 Y -62.710 I   0.972 J   0.972
G1 Z 135.500
G0 Z 190.000 
G40
G0 X 228.969 Y -62.975
G0 Z 135.500 
F150
G1 Z 135.000
F3000
G2 X 228.969 Y -62.975 I   1.237 J   1.237
G1 Z 135.500
G0 Z 190.000 
G40
G0 X 228.880 Y -63.064
G0 Z 135.500 
F150
G1 Z 135.000
F3000
G2 X 228.880 Y -63.064 I   1.326 J   1.326
G1 Z 135.500
G0 Z 190.000 
G40
G0 X 228.792 Y -63.152
G0 Z 135.500 
F150
G1 Z 135.000
F3000
G2 X 228.792 Y -63.152 I   1.414 J   1.414
G1 Z 135.500
G0 Z 190.000 
G40
G0 X 227.428 Y -62.100
G0 Z 135.500 
F150
G1 Z 135.000
F3000
G2 X 227.693 Y -61.835 I  -0.097 J   0.362
G1 Z 135.500
G0 Z 190.000 
G40
G0 X 227.110 Y -61.959
G0 Z 135.500 
F150
G1 Z 135.000
F3000
G2 X 227.110 Y -61.959 I   0.221 J   0.221
G1 Z 135.500
G0 Z 190.000 
G40
G0 X 227.055 Y -62.014
G0 Z 135.500 
F150
G1 Z 135.000
F3000
G2 X 227.055 Y -62.014 I   0.276 J   0.276
G1 Z 135.500
G0 Z 190.000 
G40
G0 X 226.208 Y -63.249
G0 Z 135.500 
F150
G1 Z 135.000
F3000
G1 X 226.985 Y -61.920
G1 Z 135.500
G0 Z 190.000 
G40
G0 X 227.466 Y -64.478
G0 Z 135.500 
F150
G1 Z 135.000
F3000
G2 X 227.466 Y -64.478 I   2.740 J   2.740
G1 Z 135.500
G0 Z 190.000 
G40
G0 X 228.394 Y -65.012
G0 Z 135.500 
F150
G1 Z 135.000
F3000
G1 X 228.394 Y -65.075
G1 X 228.494 Y -65.175
G1 X 228.729 Y -65.175
G1 Z 135.500
G0 Z 190.000 
G40
G0 X 228.394 Y -65.075
G0 Z 135.500 
F150
G1 Z 135.000
F3000
G1 X 228.494 Y -65.175
G1 X 228.494 Y -65.071
G1 Z 135.500
G0 Z 190.000 
G40
G0 X 228.718 Y -67.175
G0 Z 135.500 
F150
G1 Z 135.000
F3000
G2 X 231.694 Y -67.175 I   1.488 J   5.438
G1 Z 135.500
G0 Z 190.000 
G40
G0 X 231.956 Y -67.175
G0 Z 135.500 
F150
G1 Z 135.000
F3000
G1 X 228.456 Y -67.175
G1 X 228.456 Y -69.500
G1 X 231.956 Y -69.500
G1 Z 135.500
G0 Z 190.000 
G40
G0 X 232.831 Y -69.211
G0 Z 135.500 
F150
G1 Z 135.000
F3000
G1 X 232.831 Y -67.390
G1 X 232.818 Y -67.291
G1 X 232.780 Y -67.197
G1 X 232.720 Y -67.118
G1 Z 135.500
G0 Z 190.000 
G40
G0 X 232.643 Y -67.058
G0 Z 135.500 
F150
G1 Z 135.000
F3000
G1 X 232.551 Y -67.020
G1 X 232.456 Y -67.007
G1 X 232.575 Y -67.007
G3 X 232.456 Y -66.988 I  -0.118 J  -0.356
G1 X 232.456 Y -69.613
G1 X 231.956 Y -69.613
G1 X 231.956 Y -67.097
G1 Z 135.500
G0 Z 190.000 
G40
G0 X 232.260 Y -66.988
G0 Z 135.500 
F150
G1 Z 135.000
F3000
G1 X 232.456 Y -66.988
G1 Z 135.500
G0 Z 190.000 
G40
G0 X 228.456 Y -68.300
G0 Z 135.500 
F150
G1 Z 135.000
F3000
G1 X 231.956 Y -68.300
G1 Z 135.500
G0 Z 190.000 
G40
G0 X 228.450 Y -68.535
G0 Z 135.500 
F150
G1 Z 135.000
F3000
G2 X 232.839 Y -68.246 I   1.756 J   6.797
G1 Z 135.500
G0 Z 190.000 
G40
G0 X 228.450 Y -69.286
G0 Z 135.500 
F150
G1 Z 135.000
F3000
G2 X 232.834 Y -69.029 I   1.756 J   7.549
G1 Z 135.500
G0 Z 190.000 
G40
G0 X 233.178 Y -62.100
G0 Z 135.500 
F150
G1 Z 135.000
F3000
G2 X 233.443 Y -61.835 I  -0.097 J   0.362
G1 Z 135.500
G0 Z 190.000 
G40
G0 X 232.860 Y -61.959
G0 Z 135.500 
F150
G1 Z 135.000
F3000
G2 X 232.860 Y -61.959 I   0.221 J   0.221
G1 Z 135.500
G0 Z 190.000 
G40
G0 X 232.805 Y -62.014
G0 Z 135.500 
F150
G1 Z 135.000
F3000
G2 X 232.805 Y -62.014 I   0.276 J   0.276
G1 Z 135.500
G0 Z 190.000 
G40
G0 X 231.483 Y -61.238
G0 Z 135.500 
F150
G1 Z 135.000
F3000
G1 X 230.206 Y -61.238
G1 X 230.206 Y -62.238
G1 X 231.483 Y -62.238
G1 Z 135.500
G0 Z 190.000 
G40
G0 X 230.706 Y -61.738
G0 Z 135.500 
F150
G1 Z 135.000
F3000
G1 X 239.097 Y -61.738
G1 Z 135.500
G0 Z 190.000 
G40
G0 X 239.464 Y -62.244
G0 Z 135.500 
F150
G1 Z 135.000
F3000
G1 X 239.581 Y -62.211
G1 X 239.664 Y -62.161
G1 X 239.702 Y -62.101
G1 X 241.198 Y -62.158
G1 Z 135.500
G0 Z 190.000 
G40
G0 X 239.684 Y -59.528
G0 Z 135.500 
F150
G1 Z 135.000
F3000
G1 X 239.680 Y -56.890
G1 X 239.690 Y -54.196
G1 X 240.886 Y -22.935
G3 X 235.225 Y -12.468 I -11.680 J   0.447
G1 Z 135.500
G0 Z 190.000 
G40
G0 X 235.631 Y -10.615
G0 Z 135.500 
F150
G1 Z 135.000
F3000
G2 X 236.032 Y -10.841 I  -6.425 J -11.873
G1 Z 135.500
G0 Z 190.000 
G40
G0 X 237.779 Y -12.060
G0 Z 135.500 
F150
G1 Z 135.000
F3000
G2 X 238.171 Y -12.395 I  -8.573 J -10.428
G1 Z 135.500
G0 Z 190.000 
G40
G0 X 238.956 Y -13.154
G0 Z 135.500 
F150
G1 Z 135.000
F3000
G1 X 238.956 Y   9.998
G2 X 239.370 Y  14.529 I  25.000 J  -0.000
G1 Z 135.500
G0 Z 190.000 
G40
G0 X 235.224 Y  15.693
G0 Z 135.500 
F150
G1 Z 135.000
F3000
G3 X 241.456 Y  25.762 I  -5.017 J  10.069
G1 X 241.456 Y  32.762
G1 X 246.206 Y  37.512
G1 X 246.206 Y  77.012
G1 X 214.206 Y  77.012
G1 X 214.206 Y  37.512
G1 X 218.956 Y  32.762
G1 X 218.956 Y  25.762
G3 X 225.189 Y  15.693 I  11.250 J   0.000
G1 Z 135.500
G0 Z 190.000 
G40
G0 X 225.200 Y  12.688
G0 Z 135.500 
F150
G1 Z 135.000
F3000
G2 X 216.206 Y  25.762 I   5.007 J  13.074
G1 X 215.680 Y  25.762
G1 Z 135.500
G0 Z 190.000 
G40
G0 X 215.680 Y  25.762
G0 Z 135.500 
F150
G1 Z 135.000
F3000
G1 X 215.680 Y  32.044
G1 X 210.930 Y  36.794
G1 X 210.930 Y  49.478
G1 X 211.456 Y  50.003
G1 X 211.456 Y  37.012
G1 X 216.206 Y  32.262
G1 X 216.206 Y  25.762
G1 X 215.680 Y  25.762
G1 Z 135.500
G0 Z 190.000 
G40
G0 X 215.680 Y  25.762
G0 Z 135.500 
F150
G1 Z 135.000
F3000
G1 X 215.680 Y  32.044
G1 X 216.206 Y  32.262
G1 X 211.456 Y  37.012
G1 Z 135.500
G0 Z 190.000 
G40
G0 X 215.837 Y  41.143
G0 Z 135.500 
F150
G1 Z 135.000
F3000
G2 X 215.837 Y  41.143 I   0.619 J   0.619
G1 Z 135.500
G0 Z 190.000 
G40
G0 X 215.970 Y  41.276
G0 Z 135.500 
F150
G1 Z 135.000
F3000
G2 X 215.970 Y  41.276 I   0.486 J   0.486
G1 Z 135.500
G0 Z 190.000 
G40
G0 X 216.147 Y  41.453
G0 Z 135.500 
F150
G1 Z 135.000
F3000
G2 X 216.147 Y  41.453 I   0.309 J   0.309
G1 Z 135.500
G0 Z 190.000 
G40
G0 X 214.956 Y  48.262
G0 Z 135.500 
F150
G1 Z 135.000
F3000
G1 X 214.956 Y  60.262
G1 X 223.206 Y  60.262
G1 X 223.206 Y  48.262
G1 X 214.956 Y  48.262
G1 Z 135.500
G0 Z 190.000 
G40
G0 X 217.712 Y  48.643
G0 Z 135.500 
F150
G1 Z 135.000
F3000
G2 X 217.712 Y  48.643 I   0.619 J   0.619
G1 Z 135.500
G0 Z 190.000 
G40
G0 X 217.845 Y  48.776
G0 Z 135.500 
F150
G1 Z 135.000
F3000
G2 X 217.845 Y  48.776 I   0.486 J   0.486
G1 Z 135.500
G0 Z 190.000 
G40
G0 X 218.022 Y  48.953
G0 Z 135.500 
F150
G1 Z 135.000
F3000
G2 X 218.022 Y  48.953 I   0.309 J   0.309
G1 Z 135.500
G0 Z 190.000 
G40
G0 X 211.456 Y  50.003
G0 Z 135.500 
F150
G1 Z 135.000
F3000
G1 X 211.456 Y  37.012
G1 X 210.930 Y  36.794
G1 X 210.930 Y  49.478
G1 Z 135.500
G0 Z 190.000 
G40
G0 X 210.930 Y  49.478
G0 Z 135.500 
F150
G1 Z 135.000
F3000
G1 X 210.916 Y  49.624
G1 X 210.873 Y  49.765
G1 X 210.804 Y  49.894
G1 X 210.711 Y  50.008
G1 X 210.597 Y  50.101
G1 X 210.467 Y  50.170
G1 X 210.327 Y  50.213
G1 Z 135.500
G0 Z 190.000 
G40
G0 X 210.180 Y  50.227
G0 Z 135.500 
F150
G1 Z 135.000
F3000
G1 X 210.706 Y  50.753
G1 X 210.853 Y  50.739
G1 Z 135.500
G0 Z 190.000 
G40
G0 X 210.853 Y  50.739
G0 Z 135.500 
F150
G1 Z 135.000
F3000
G1 X 210.706 Y  50.753
G1 X 210.956 Y  50.753
G1 X 208.956 Y  50.762
G1 X 208.956 Y  50.219
G2 X 208.956 Y  56.305 I   0.000 J   3.043
G1 X 208.956 Y  55.762
G1 X 232.456 Y -69.613
G3 X 232.574 Y -69.594 I   0.000 J   0.375
G1 X 232.456 Y -69.594
G1 X 232.551 Y -69.581
G1 X 232.643 Y -69.543
G1 X 232.720 Y -69.483
G1 X 232.780 Y -69.404
G1 X 232.818 Y -69.310
G1 Z 135.500
G0 Z 190.000 
G40
G0 X 226.414 Y -65.530
G0 Z 135.500 
F150
G1 Z 135.000
F3000
G2 X 226.414 Y -65.530 I   3.792 J   3.792
G1 Z 135.500
G0 Z 190.000 
G40
G0 X 226.361 Y -65.583
G0 Z 135.500 
F150
G1 Z 135.000
F3000
G2 X 226.361 Y -65.583 I   3.845 J   3.845
G1 Z 135.500
G0 Z 190.000 
G40
G0 X 222.753 Y -67.700
G0 Z 135.500 
F150
G1 Z 135.000
F3000
G1 X 220.496 Y -63.404
G1 X 218.445 Y -58.917
G1 Z 135.500
G0 Z 190.000 
G40
G0 X 218.109 Y -58.937
G0 Z 135.500 
F150
G1 Z 135.000
F3000
G1 X 220.174 Y -63.416
G1 X 222.446 Y -67.704
G1 X 222.523 Y -67.741
G1 X 222.629 Y -67.738
G1 Z 135.500
G0 Z 190.000 
G40
G0 X 222.447 Y -67.705
G0 Z 135.500 
F150
G1 Z 135.000
F3000
G1 X 222.450 Y -67.707
G1 Z 135.500
G0 Z 190.000 
G40
G0 X 221.626 Y -68.276
G0 Z 135.500 
F150
G1 Z 135.000
F3000
G1 X 221.957 Y -68.045
G1 X 222.446 Y -67.704
G1 X 222.523 Y -67.741
G1 X 222.629 Y -67.738
G1 X 208.956 Y  50.219
G1 X 240.706 Y  56.762
G1 X 249.456 Y  50.762
G1 X 251.456 Y  50.762
G1 X 251.456 Y  50.219
G1 X 250.143 Y  50.219
G1 Z 135.500
G0 Z 190.000 
G40
G0 X 249.419 Y  50.696
G0 Z 135.500 
F150
G1 Z 135.000
F3000
G1 X 249.560 Y  50.739
G1 Z 135.500
G0 Z 190.000 
G40
G0 X 249.496 Y  49.624
G0 Z 135.500 
F150
G1 Z 135.000
F3000
G1 X 249.539 Y  49.765
G1 X 249.608 Y  49.894
G1 X 249.702 Y  50.008
G1 X 249.815 Y  50.101
G1 X 249.945 Y  50.170
G1 X 250.086 Y  50.213
G1 X 250.232 Y  50.227
G1 X 249.706 Y  50.753
G1 Z 135.500
G0 Z 190.000 
G40
G0 X 251.456 Y  51.262
G0 Z 135.500 
F150
G1 Z 135.000
F3000
G1 X 251.456 Y  53.262
G1 X 249.456 Y  53.262
G1 Z 135.500
G0 Z 190.000 
G40
G0 X 250.855 Y  52.661
G0 Z 135.500 
F150
G1 Z 135.000
F3000
G2 X 250.855 Y  52.661 I   0.601 J   0.601
G1 Z 135.500
G0 Z 190.000 
G40
G0 X 251.715 Y  52.296
G0 Z 135.500 
F150
G1 Z 135.000
F3000
G2 X 252.422 Y  53.003 I  -0.259 J   0.966
G1 Z 135.500
G0 Z 190.000 
G40
G0 X 253.456 Y  53.262
G0 Z 135.500 
F150
G1 Z 135.000
F3000
G1 X 251.456 Y  53.262
G1 X 251.456 Y  55.262
G1 Z 135.500
G0 Z 190.000 
G40
G0 X 249.560 Y  55.785
G0 Z 135.500 
F150
G1 Z 135.000
F3000
G1 X 249.706 Y  55.771
G1 X 250.232 Y  56.297
G1 Z 135.500
G0 Z 190.000 
G40
G0 X 249.419 Y  55.828
G0 Z 135.500 
F150
G1 Z 135.000
F3000
G1 X 249.289 Y  55.897
G1 X 249.176 Y  55.990
G1 X 249.082 Y  56.104
G1 X 249.013 Y  56.234
G1 X 248.971 Y  56.374
G1 Z 135.500
G0 Z 190.000 
G40
G0 X 248.956 Y  56.521
G0 Z 135.500 
F150
G1 Z 135.000
F3000
G1 X 248.956 Y  74.512
G1 X 249.482 Y  74.512
G1 X 249.482 Y  57.046
G1 X 249.496 Y  56.900
G1 X 249.539 Y  56.759
G1 X 249.608 Y  56.630
G1 X 249.702 Y  56.516
G1 X 249.815 Y  56.423
G1 X 249.945 Y  56.354
G1 X 250.086 Y  56.311
G1 X 249.945 Y  56.354
G1 X 249.815 Y  56.423
G1 X 249.702 Y  56.516
G1 X 249.608 Y  56.630
G1 X 249.539 Y  56.759
G1 X 249.496 Y  56.900
G1 X 249.482 Y  57.046
G1 X 248.956 Y  56.521
G1 Z 135.500
G0 Z 190.000 
G40
G0 X 248.956 Y  56.521
G0 Z 135.500 
F150
G1 Z 135.000
F3000
G1 X 248.956 Y  74.512
G1 X 248.968 Y  74.643
G1 X 249.002 Y  74.770
G1 X 249.058 Y  74.889
G1 X 249.133 Y  74.996
G1 X 249.227 Y  75.089
G1 X 249.335 Y  75.164
G1 X 249.454 Y  75.218
G1 Z 135.500
G0 Z 190.000 
G40
G0 X 249.493 Y  74.641
G0 Z 135.500 
F150
G1 Z 135.000
F3000
G1 X 249.527 Y  74.767
G1 X 249.581 Y  74.885
G1 X 249.581 Y  75.762
G1 Z 135.500
G0 Z 190.000 
G40
G0 X 251.456 Y  75.412
G0 Z 135.500 
F150
G1 Z 135.000
F3000
G1 X 251.456 Y  78.262
G1 X 254.306 Y  78.262
G1 Z 135.500
G0 Z 190.000 
G40
G0 X 251.715 Y  77.296
G0 Z 135.500 
F150
G1 Z 135.000
F3000
G2 X 252.422 Y  78.003 I  -0.259 J   0.966
G1 Z 135.500
G0 Z 190.000 
G40
G0 X 250.855 Y  77.661
G0 Z 135.500 
F150
G1 Z 135.000
F3000
G2 X 250.855 Y  77.661 I   0.601 J   0.601
G1 Z 135.500
G0 Z 190.000 
G40
G0 X 248.606 Y  78.262
G0 Z 135.500 
F150
G1 Z 135.000
F3000
G1 X 251.456 Y  78.262
G1 X 254.306 Y  78.262
G1 Z 135.500
G0 Z 190.000 
G40
G0 X 251.456 Y  75.412
G0 Z 135.500 
F150
G1 Z 135.000
F3000
G1 X 251.456 Y  78.262
G1 X 251.456 Y  81.112
G1 Z 135.500
G0 Z 190.000 
G40
G0 X 248.819 Y  80.356
G0 Z 135.500 
F150
G1 Z 135.000
F3000
G1 X 248.890 Y  80.481
G1 X 248.936 Y  80.617
G1 Z 135.500
G0 Z 190.000 
G40
G0 X 248.352 Y  79.526
G0 Z 135.500 
F150
G1 Z 135.000
F3000
G1 X 248.493 Y  79.569
G1 X 248.623 Y  79.638
G1 X 248.736 Y  79.732
G1 X 248.830 Y  79.845
G1 X 248.899 Y  79.975
G1 X 248.942 Y  80.116
G1 X 248.956 Y  80.262
G1 X 248.956 Y  80.762
G1 X 253.956 Y  80.762
G1 X 253.956 Y  75.762
G1 X 249.456 Y  75.762
G1 X 249.456 Y  80.762
G1 Z 135.500
G0 Z 190.000 
G40
G0 X 248.206 Y  79.512
G0 Z 135.500 
F150
G1 Z 135.000
F3000
G1 X 248.206 Y  80.038
G1 X 248.349 Y  80.052
G1 X 248.486 Y  80.092
G1 X 248.614 Y  80.158
G1 X 248.726 Y  80.247
G1 Z 135.500
G0 Z 190.000 
G40
G0 X 248.706 Y  79.012
G0 Z 135.500 
F150
G1 Z 135.000
F3000
G1 X 248.206 Y  79.512
G1 X 212.206 Y  79.512
G1 X 211.706 Y  79.012
G1 Z 135.500
G0 Z 190.000 
G40
G0 X 211.471 Y  80.116
G0 Z 135.500 
F150
G1 Z 135.000
F3000
G1 X 211.513 Y  79.975
G1 X 211.582 Y  79.845
G1 X 211.676 Y  79.732
G1 X 211.789 Y  79.638
G1 X 211.919 Y  79.569
G1 X 212.060 Y  79.526
G1 X 212.206 Y  79.512
G1 X 248.206 Y  79.512
G1 Z 135.500
G0 Z 190.000 
G40
G0 X 243.664 Y  79.551
G0 Z 135.500 
F150
G1 Z 135.000
F3000
G1 X 243.798 Y  79.549
G1 X 243.956 Y  79.548
G1 X 244.114 Y  79.549
G1 X 244.248 Y  79.551
G1 X 244.337 Y  79.553
G1 X 244.369 Y  79.556
G1 Z 135.500
G0 Z 190.000 
G40
G0 X 243.544 Y  79.556
G0 Z 135.500 
F150
G1 Z 135.000
F3000
G1 X 243.575 Y  79.553
G1 X 243.664 Y  79.561
G1 X 243.798 Y  79.562
G1 X 243.956 Y  79.563
G1 X 244.114 Y  79.562
G1 X 244.248 Y  79.561
G1 Z 135.500
G0 Z 190.000 
G40
G0 X 239.973 Y  72.820
G0 Z 135.500 
F150
G1 Z 135.000
F3000
G2 X 240.238 Y  73.085 I  -0.097 J   0.362
G1 Z 135.500
G0 Z 190.000 
G40
G0 X 239.655 Y  72.961
G0 Z 135.500 
F150
G1 Z 135.000
F3000
G2 X 239.655 Y  72.961 I   0.221 J   0.221
G1 Z 135.500
G0 Z 190.000 
G40
G0 X 239.600 Y  72.906
G0 Z 135.500 
F150
G1 Z 135.000
F3000
G2 X 239.600 Y  72.906 I   0.276 J   0.276
G1 Z 135.500
G0 Z 190.000 
G40
G0 X 239.390 Y  72.696
G0 Z 135.500 
F150
G1 Z 135.000
F3000
G2 X 239.390 Y  72.696 I   0.486 J   0.486
G1 Z 135.500
G0 Z 190.000 
G40
G0 X 239.479 Y  72.495
G0 Z 135.500 
F150
G1 Z 135.000
F3000
G1 X 239.082 Y  73.182
G1 X 239.479 Y  73.870
G1 X 240.273 Y  73.870
G1 X 240.670 Y  73.182
G1 X 240.273 Y  72.495
G1 X 239.479 Y  72.495
G1 Z 135.500
G0 Z 190.000 
G40
G0 X 232.633 Y  72.820
G0 Z 135.500 
F150
G1 Z 135.000
F3000
G2 X 232.898 Y  73.085 I  -0.097 J   0.362
G1 Z 135.500
G0 Z 190.000 
G40
G0 X 232.315 Y  72.961
G0 Z 135.500 
F150
G1 Z 135.000
F3000
G2 X 232.315 Y  72.961 I   0.221 J   0.221
G1 Z 135.500
G0 Z 190.000 
G40
G0 X 232.260 Y  72.906
G0 Z 135.500 
F150
G1 Z 135.000
F3000
G2 X 232.260 Y  72.906 I   0.276 J   0.276
G1 Z 135.500
G0 Z 190.000 
G40
G0 X 232.050 Y  72.696
G0 Z 135.500 
F150
G1 Z 135.000
F3000
G2 X 232.050 Y  72.696 I   0.486 J   0.486
G1 Z 135.500
G0 Z 190.000 
G40
G0 X 232.139 Y  72.495
G0 Z 135.500 
F150
G1 Z 135.000
F3000
G1 X 231.742 Y  73.182
G1 X 232.139 Y  73.870
G1 X 232.933 Y  73.870
G1 X 233.330 Y  73.182
G1 X 232.933 Y  72.495
G1 X 232.139 Y  72.495
G1 Z 135.500
G0 Z 190.000 
G40
G0 X 226.749 Y  71.305
G0 Z 135.500 
F150
G1 Z 135.000
F3000
G2 X 226.749 Y  71.305 I   0.707 J   0.707
G1 Z 135.500
G0 Z 190.000 
G40
G0 X 226.661 Y  71.217
G0 Z 135.500 
F150
G1 Z 135.000
F3000
G2 X 226.661 Y  71.217 I   0.795 J   0.795
G1 Z 135.500
G0 Z 190.000 
G40
G0 X 226.183 Y  70.739
G0 Z 135.500 
F150
G1 Z 135.000
F3000
G2 X 226.183 Y  70.739 I   1.273 J   1.273
G1 Z 135.500
G0 Z 190.000 
G40
G0 X 226.130 Y  70.686
G0 Z 135.500 
F150
G1 Z 135.000
F3000
G2 X 226.130 Y  70.686 I   1.326 J   1.326
G1 Z 135.500
G0 Z 190.000 
G40
G0 X 226.042 Y  70.598
G0 Z 135.500 
F150
G1 Z 135.000
F3000
G2 X 226.042 Y  70.598 I   1.414 J   1.414
G1 Z 135.500
G0 Z 190.000 
G40
G0 X 225.600 Y  70.156
G0 Z 135.500 
F150
G1 Z 135.000
F3000
G2 X 225.600 Y  70.156 I   1.856 J   1.856
G1 Z 135.500
G0 Z 190.000 
G40
G0 X 225.512 Y  70.067
G0 Z 135.500 
F150
G1 Z 135.000
F3000
G2 X 225.512 Y  70.067 I   1.945 J   1.945
G1 Z 135.500
G0 Z 190.000 
G40
G0 X 225.423 Y  69.979
G0 Z 135.500 
F150
G1 Z 135.000
F3000
G2 X 225.423 Y  69.979 I   2.033 J   2.033
G1 Z 135.500
G0 Z 190.000 
G40
G0 X 227.103 Y  66.658
G0 Z 135.500 
F150
G1 Z 135.000
F3000
G2 X 227.103 Y  66.658 I   0.354 J   0.354
G1 Z 135.500
G0 Z 190.000 
G40
G0 X 226.572 Y  66.128
G0 Z 135.500 
F150
G1 Z 135.000
F3000
G2 X 226.572 Y  66.128 I   0.884 J   0.884
G1 Z 135.500
G0 Z 190.000 
G40
G0 X 226.307 Y  65.863
G0 Z 135.500 
F150
G1 Z 135.000
F3000
G2 X 226.307 Y  65.863 I   1.149 J   1.149
G1 Z 135.500
G0 Z 190.000 
G40
G0 X 226.042 Y  65.598
G0 Z 135.500 
F150
G1 Z 135.000
F3000
G2 X 226.042 Y  65.598 I   1.414 J   1.414
G1 Z 135.500
G0 Z 190.000 
G40
G0 X 227.081 Y  61.037
G0 Z 135.500 
F150
G1 Z 135.000
F3000
G1 X 235.331 Y  61.037
G1 Z 135.500
G0 Z 190.000 
G40
G0 X 231.027 Y  61.726
G0 Z 135.500 
F150
G1 Z 135.000
F3000
G1 X 230.847 Y  62.037
G1 X 231.027 Y  62.348
G1 X 231.385 Y  62.348
G1 X 231.565 Y  62.037
G1 X 231.385 Y  61.726
G1 X 231.027 Y  61.726
G1 Z 135.500
G0 Z 190.000 
G40
G0 X 230.773 Y  61.604
G0 Z 135.500 
F150
G1 Z 135.000
F3000
G2 X 230.773 Y  61.604 I   0.433 J   0.433
G1 Z 135.500
G0 Z 190.000 
G40
G0 X 230.720 Y  61.551
G0 Z 135.500 
F150
G1 Z 135.000
F3000
G2 X 230.720 Y  61.551 I   0.486 J   0.486
G1 Z 135.500
G0 Z 190.000 
G40
G0 X 227.081 Y  60.912
G0 Z 135.500 
F150
G1 Z 135.000
F3000
G1 X 235.331 Y  60.912
G1 Z 135.500
G0 Z 190.000 
G40
G0 X 232.633 Y  65.480
G0 Z 135.500 
F150
G1 Z 135.000
F3000
G2 X 232.898 Y  65.745 I  -0.097 J   0.362
G1 Z 135.500
G0 Z 190.000 
G40
G0 X 232.315 Y  65.621
G0 Z 135.500 
F150
G1 Z 135.000
F3000
G2 X 232.315 Y  65.621 I   0.221 J   0.221
G1 Z 135.500
G0 Z 190.000 
G40
G0 X 232.260 Y  65.566
G0 Z 135.500 
F150
G1 Z 135.000
F3000
G2 X 232.260 Y  65.566 I   0.276 J   0.276
G1 Z 135.500
G0 Z 190.000 
G40
G0 X 232.050 Y  65.356
G0 Z 135.500 
F150
G1 Z 135.000
F3000
G2 X 232.050 Y  65.356 I   0.486 J   0.486
G1 Z 135.500
G0 Z 190.000 
G40
G0 X 232.139 Y  65.155
G0 Z 135.500 
F150
G1 Z 135.000
F3000
G1 X 231.742 Y  65.842
G1 X 232.139 Y  66.530
G1 X 232.933 Y  66.530
G1 X 233.330 Y  65.842
G1 X 232.933 Y  65.155
G1 X 232.139 Y  65.155
G1 Z 135.500
G0 Z 190.000 
G40
G0 X 233.113 Y  66.418
G0 Z 135.500 
F150
G1 Z 135.000
F3000
G2 X 233.113 Y  66.418 I   3.094 J   3.094
G1 Z 135.500
G0 Z 190.000 
G40
G0 X 233.203 Y  66.505
G0 Z 135.500 
F150
G1 Z 135.000
F3000
G2 X 233.203 Y  66.505 I   3.005 J   3.005
G1 Z 135.500
G0 Z 190.000 
G40
G0 X 233.733 Y  67.035
G0 Z 135.500 
F150
G1 Z 135.000
F3000
G2 X 233.733 Y  67.035 I   2.475 J   2.475
G1 Z 135.500
G0 Z 190.000 
G40
G0 X 239.390 Y  65.356
G0 Z 135.500 
F150
G1 Z 135.000
F3000
G2 X 239.390 Y  65.356 I   0.486 J   0.486
G1 Z 135.500
G0 Z 190.000 
G40
G0 X 239.479 Y  65.155
G0 Z 135.500 
F150
G1 Z 135.000
F3000
G1 X 239.082 Y  65.842
G1 X 239.479 Y  66.530
G1 X 240.273 Y  66.530
G1 X 240.670 Y  65.842
G1 X 240.273 Y  65.155
G1 X 239.479 Y  65.155
G1 Z 135.500
G0 Z 190.000 
G40
G0 X 239.600 Y  65.566
G0 Z 135.500 
F150
G1 Z 135.000
F3000
G2 X 239.600 Y  65.566 I   0.276 J   0.276
G1 Z 135.500
G0 Z 190.000 
G40
G0 X 239.655 Y  65.621
G0 Z 135.500 
F150
G1 Z 135.000
F3000
G2 X 239.655 Y  65.621 I   0.221 J   0.221
G1 Z 135.500
G0 Z 190.000 
G40
G0 X 239.973 Y  65.480
G0 Z 135.500 
F150
G1 Z 135.000
F3000
G2 X 240.238 Y  65.745 I  -0.097 J   0.362
G1 Z 135.500
G0 Z 190.000 
G40
G0 X 243.647 Y  61.453
G0 Z 135.500 
F150
G1 Z 135.000
F3000
G2 X 243.647 Y  61.453 I   0.309 J   0.309
G1 Z 135.500
G0 Z 190.000 
G40
G0 X 243.470 Y  61.276
G0 Z 135.500 
F150
G1 Z 135.000
F3000
G2 X 243.470 Y  61.276 I   0.486 J   0.486
G1 Z 135.500
G0 Z 190.000 
G40
G0 X 243.337 Y  61.143
G0 Z 135.500 
F150
G1 Z 135.000
F3000
G2 X 243.337 Y  61.143 I   0.619 J   0.619
G1 Z 135.500
G0 Z 190.000 
G40
G0 X 244.206 Y  56.762
G0 Z 135.500 
F150
G1 Z 135.000
F3000
G1 X 240.706 Y  56.762
G1 X 242.696 Y -23.004
G3 X 242.705 Y -22.654 I -13.490 J   0.516
G1 X 244.581 Y -21.571
G1 Z 135.500
G0 Z 190.000 
G40
G0 X 244.568 Y -21.578
G0 Z 135.500 
F150
G1 Z 135.000
F3000
G1 X 244.523 Y -21.498
G3 X 244.547 Y -19.492 I  -0.567 J   1.010
G1 X 244.594 Y -19.413
G1 Z 135.500
G0 Z 190.000 
G40
G0 X 243.740 Y -20.863
G0 Z 135.500 
F150
G1 Z 135.000
F3000
G1 X 243.523 Y -20.488
G1 X 243.740 Y -20.113
G1 X 244.173 Y -20.113
G1 X 244.389 Y -20.488
G1 X 244.173 Y -20.863
G1 X 243.740 Y -20.863
G1 Z 135.500
G0 Z 190.000 
G40
G0 X 243.337 Y -21.107
G0 Z 135.500 
F150
G1 Z 135.000
F3000
G2 X 243.337 Y -21.107 I   0.619 J   0.619
G1 Z 135.500
G0 Z 190.000 
G40
G0 X 243.249 Y -21.195
G0 Z 135.500 
F150
G1 Z 135.000
F3000
G2 X 243.249 Y -21.195 I   0.707 J   0.707
G1 Z 135.500
G0 Z 190.000 
G40
G0 X 242.697 Y -22.594
G0 Z 135.500 
F150
G1 Z 135.000
F3000
G1 X 242.687 Y -22.564
G1 X 242.677 Y -22.535
G1 X 244.523 Y -21.498
G1 Z 135.500
G0 Z 190.000 
G40
G0 X 242.705 Y -22.624
G0 Z 135.500 
F150
G1 Z 135.000
F3000
G1 X 244.568 Y -21.578
G3 X 244.581 Y -19.405 I  -0.612 J   1.090
G1 Z 135.500
G0 Z 190.000 
G40
G0 X 241.868 Y -17.831
G0 Z 135.500 
F150
G1 Z 135.000
F3000
G1 X 241.863 Y -17.793
G1 X 244.594 Y -19.413
G1 X 240.706 Y  56.762
G1 Z 135.500
G0 Z 190.000 
G40
G0 X 241.792 Y  56.513
G0 Z 135.500 
F150
G1 Z 135.000
F3000
G2 X 242.206 Y  56.637 I   0.414 J  -0.626
G1 X 240.706 Y  56.762
G1 X 241.873 Y -17.905
G1 X 241.872 Y -17.869
G1 Z 135.500
G0 Z 190.000 
G40
G0 X 241.868 Y -17.831
G0 Z 135.500 
F150
G1 Z 135.000
F3000
G1 X 241.863 Y -17.793
G3 X 240.664 Y -15.350 I -12.657 J  -4.695
G1 Z 135.500
G0 Z 190.000 
G40
G0 X 239.776 Y -14.090
G0 Z 135.500 
F150
G1 Z 135.000
F3000
G3 X 239.325 Y -13.552 I -10.570 J  -8.398
G1 Z 135.500
G0 Z 190.000 
G40
G0 X 242.696 Y -23.004
G0 Z 135.500 
F150
G1 Z 135.000
F3000
G1 X 241.562 Y -52.634
G1 X 242.696 Y -23.004
G1 X 240.513 Y -22.920
G1 X 239.317 Y -54.182
G1 X 239.372 Y -54.239
G1 X 239.490 Y -54.235
G1 X 239.588 Y -54.227
G1 X 239.657 Y -54.213
G1 Z 135.500
G0 Z 190.000 
G40
G0 X 239.335 Y -54.274
G0 Z 135.500 
F150
G1 Z 135.000
F3000
G1 X 239.354 Y -54.257
G1 X 239.372 Y -54.239
G1 X 239.490 Y -54.235
G1 X 239.588 Y -54.227
G1 X 239.657 Y -54.213
G1 X 210.956 Y  50.762
G1 X 240.706 Y  56.762
G1 X 210.956 Y  50.762
G1 Z 135.500
G0 Z 190.000 
G40
G0 X 211.442 Y  50.150
G0 Z 135.500 
F150
G1 Z 135.000
F3000
G1 X 211.399 Y  50.290
G1 X 211.330 Y  50.420
G1 X 211.236 Y  50.534
G1 X 211.123 Y  50.627
G1 X 210.993 Y  50.696
G1 Z 135.500
G0 Z 190.000 
G40
G0 X 208.956 Y  50.762
G0 Z 135.500 
F150
G1 Z 135.000
F3000
G2 X 208.956 Y  55.762 I   0.000 J   2.500
G1 Z 135.500
G0 Z 190.000 
G40
G0 X 208.956 Y  55.262
G0 Z 135.500 
F150
G1 Z 135.000
F3000
G1 X 208.956 Y  53.262
G1 X 210.956 Y  53.262
G1 Z 135.500
G0 Z 190.000 
G40
G0 X 209.215 Y  52.296
G0 Z 135.500 
F150
G1 Z 135.000
F3000
G2 X 209.922 Y  53.003 I  -0.259 J   0.966
G1 Z 135.500
G0 Z 190.000 
G40
G0 X 208.355 Y  52.661
G0 Z 135.500 
F150
G1 Z 135.000
F3000
G2 X 208.355 Y  52.661 I   0.601 J   0.601
G1 Z 135.500
G0 Z 190.000 
G40
G0 X 208.956 Y  51.262
G0 Z 135.500 
F150
G1 Z 135.000
F3000
G1 X 208.956 Y  53.262
G1 X 206.956 Y  53.262
G1 Z 135.500
G0 Z 190.000 
G40
G0 X 208.956 Y  51.262
G0 Z 135.500 
F150
G1 Z 135.000
F3000
G1 X 208.956 Y  53.262
G1 X 208.956 Y  55.262
G1 Z 135.500
G0 Z 190.000 
G40
G0 X 210.853 Y  55.785
G0 Z 135.500 
F150
G1 Z 135.000
F3000
G1 X 210.993 Y  55.828
G1 Z 135.500
G0 Z 190.000 
G40
G0 X 211.123 Y  55.897
G0 Z 135.500 
F150
G1 Z 135.000
F3000
G1 X 211.236 Y  55.990
G1 X 211.330 Y  56.104
G1 X 211.399 Y  56.234
G1 X 211.442 Y  56.374
G1 X 211.456 Y  56.521
G1 X 211.456 Y  74.512
G1 Z 135.500
G0 Z 190.000 
G40
G0 X 210.831 Y  74.885
G0 Z 135.500 
F150
G1 Z 135.000
F3000
G1 X 210.831 Y  75.762
G1 Z 135.500
G0 Z 190.000 
G40
G0 X 210.831 Y  75.252
G0 Z 135.500 
F150
G1 Z 135.000
F3000
G1 X 210.958 Y  75.218
G1 X 211.078 Y  75.164
G1 X 211.186 Y  75.089
G1 X 211.279 Y  74.996
G1 X 211.355 Y  74.889
G1 X 211.410 Y  74.770
G1 X 211.445 Y  74.643
G1 Z 135.500
G0 Z 190.000 
G40
G0 X 208.956 Y  75.412
G0 Z 135.500 
F150
G1 Z 135.000
F3000
G1 X 208.956 Y  78.262
G1 X 211.806 Y  78.262
G1 Z 135.500
G0 Z 190.000 
G40
G0 X 211.456 Y  80.262
G0 Z 135.500 
F150
G1 Z 135.000
F3000
G1 X 211.456 Y  80.762
G1 X 206.456 Y  80.762
G1 X 206.456 Y  75.762
G1 X 210.956 Y  75.762
G1 X 210.956 Y  80.762
G1 Z 135.500
G0 Z 190.000 
G40
G0 X 211.522 Y  80.481
G0 Z 135.500 
F150
G1 Z 135.000
F3000
G1 X 211.476 Y  80.617
G1 X 211.456 Y  80.762
G1 X 211.456 Y  80.262
G1 Z 135.500
G0 Z 190.000 
G40
G0 X 211.593 Y  80.356
G0 Z 135.500 
F150
G1 Z 135.000
F3000
G1 X 211.686 Y  80.247
G1 X 211.799 Y  80.158
G1 X 211.926 Y  80.092
G1 X 212.063 Y  80.052
G1 Z 135.500
G0 Z 190.000 
G40
G0 X 209.215 Y  77.296
G0 Z 135.500 
F150
G1 Z 135.000
F3000
G2 X 209.922 Y  78.003 I  -0.259 J   0.966
G1 Z 135.500
G0 Z 190.000 
G40
G0 X 208.355 Y  77.661
G0 Z 135.500 
F150
G1 Z 135.000
F3000
G2 X 208.355 Y  77.661 I   0.601 J   0.601
G1 Z 135.500
G0 Z 190.000 
G40
G0 X 206.486 Y  78.828
G0 Z 135.500 
F150
G1 Z 135.000
F3000
G1 X 208.005 Y  78.571
G1 Z 135.500
G0 Z 190.000 
G40
G0 X 206.106 Y  78.262
G0 Z 135.500 
F150
G1 Z 135.000
F3000
G1 X 208.956 Y  78.262
G1 X 208.956 Y  81.112
G1 Z 135.500
G0 Z 190.000 
G40
G0 X 219.777 Y  70.333
G0 Z 135.500 
F150
G1 Z 135.000
F3000
G2 X 219.777 Y  70.333 I   1.679 J   1.679
G1 Z 135.500
G0 Z 190.000 
G40
G0 X 220.130 Y  70.686
G0 Z 135.500 
F150
G1 Z 135.000
F3000
G2 X 220.130 Y  70.686 I   1.326 J   1.326
G1 Z 135.500
G0 Z 190.000 
G40
G0 X 220.395 Y  70.951
G0 Z 135.500 
F150
G1 Z 135.000
F3000
G2 X 220.395 Y  70.951 I   1.061 J   1.061
G1 Z 135.500
G0 Z 190.000 
G40
G0 X 220.926 Y  71.482
G0 Z 135.500 
F150
G1 Z 135.000
F3000
G2 X 220.926 Y  71.482 I   0.530 J   0.530
G1 Z 135.500
G0 Z 190.000 
G40
G0 X 220.926 Y  66.482
G0 Z 135.500 
F150
G1 Z 135.000
F3000
G2 X 220.926 Y  66.482 I   0.530 J   0.530
G1 Z 135.500
G0 Z 190.000 
G40
G0 X 220.395 Y  65.951
G0 Z 135.500 
F150
G1 Z 135.000
F3000
G2 X 220.395 Y  65.951 I   1.061 J   1.061
G1 Z 135.500
G0 Z 190.000 
G40
G0 X 220.130 Y  65.686
G0 Z 135.500 
F150
G1 Z 135.000
F3000
G2 X 220.130 Y  65.686 I   1.326 J   1.326
G1 Z 135.500
G0 Z 190.000 
G40
G0 X 219.777 Y  65.333
G0 Z 135.500 
F150
G1 Z 135.000
F3000
G2 X 219.777 Y  65.333 I   1.679 J   1.679
G1 Z 135.500
G0 Z 190.000 
G40
G0 X 216.147 Y  61.453
G0 Z 135.500 
F150
G1 Z 135.000
F3000
G2 X 216.147 Y  61.453 I   0.309 J   0.309
G1 Z 135.500
G0 Z 190.000 
G40
G0 X 215.970 Y  61.276
G0 Z 135.500 
F150
G1 Z 135.000
F3000
G2 X 215.970 Y  61.276 I   0.486 J   0.486
G1 Z 135.500
G0 Z 190.000 
G40
G0 X 215.837 Y  61.143
G0 Z 135.500 
F150
G1 Z 135.000
F3000
G2 X 215.837 Y  61.143 I   0.619 J   0.619
G1 Z 135.500
G0 Z 190.000 
G40
G0 X 212.740 Y  65.387
G0 Z 135.500 
F150
G1 Z 135.000
F3000
G1 X 212.523 Y  65.762
G1 X 212.740 Y  66.137
G1 X 213.173 Y  66.137
G1 X 213.389 Y  65.762
G1 X 213.173 Y  65.387
G1 X 212.740 Y  65.387
G1 Z 135.500
G0 Z 190.000 
G40
G0 X 212.337 Y  65.143
G0 Z 135.500 
F150
G1 Z 135.000
F3000
G2 X 212.337 Y  65.143 I   0.619 J   0.619
G1 Z 135.500
G0 Z 190.000 
G40
G0 X 210.930 Y  57.046
G0 Z 135.500 
F150
G1 Z 135.000
F3000
G1 X 210.930 Y  74.512
G1 X 210.919 Y  74.641
G1 X 210.886 Y  74.767
G1 X 210.919 Y  74.641
G1 X 210.930 Y  74.512
G1 X 211.456 Y  74.512
G1 X 211.456 Y  56.521
G1 X 210.930 Y  57.046
G1 Z 135.500
G0 Z 190.000 
G40
G0 X 210.916 Y  56.900
G0 Z 135.500 
F150
G1 Z 135.000
F3000
G1 X 210.873 Y  56.759
G1 X 210.804 Y  56.630
G1 X 210.711 Y  56.516
G1 X 210.597 Y  56.423
G1 X 210.467 Y  56.354
G1 X 210.327 Y  56.311
G1 X 210.180 Y  56.297
G1 X 210.706 Y  55.771
G1 Z 135.500
G0 Z 190.000 
G40
G0 X 208.956 Y  50.219
G0 Z 135.500 
F150
G1 Z 135.000
F3000
G1 X 210.269 Y  50.219
G1 Z 135.500
G0 Z 190.000 
G40
G0 X 221.587 Y  56.143
G0 Z 135.500 
F150
G1 Z 135.000
F3000
G2 X 221.587 Y  56.143 I   0.619 J   0.619
G1 Z 135.500
G0 Z 190.000 
G40
G0 X 221.720 Y  56.276
G0 Z 135.500 
F150
G1 Z 135.000
F3000
G2 X 221.720 Y  56.276 I   0.486 J   0.486
G1 Z 135.500
G0 Z 190.000 
G40
G0 X 221.897 Y  56.453
G0 Z 135.500 
F150
G1 Z 135.000
F3000
G2 X 221.897 Y  56.453 I   0.309 J   0.309
G1 Z 135.500
G0 Z 190.000 
G40
G0 X 227.081 Y  60.787
G0 Z 135.500 
F150
G1 Z 135.000
F3000
G1 X 235.331 Y  60.787
G1 Z 135.500
G0 Z 190.000 
G40
G0 X 242.206 Y  56.637
G0 Z 135.500 
F150
G1 Z 135.000
F3000
G1 X 242.456 Y  56.637
G2 X 242.870 Y  56.513 I   0.000 J  -0.750
G1 Z 135.500
G0 Z 190.000 
G40
G0 X 246.837 Y  65.143
G0 Z 135.500 
F150
G1 Z 135.000
F3000
G2 X 246.837 Y  65.143 I   0.619 J   0.619
G1 Z 135.500
G0 Z 190.000 
G40
G0 X 247.240 Y  65.387
G0 Z 135.500 
F150
G1 Z 135.000
F3000
G1 X 247.023 Y  65.762
G1 X 247.240 Y  66.137
G1 X 247.673 Y  66.137
G1 X 247.889 Y  65.762
G1 X 247.673 Y  65.387
G1 X 247.240 Y  65.387
G1 Z 135.500
G0 Z 190.000 
G40
G0 X 251.456 Y  50.219
G0 Z 135.500 
F150
G1 Z 135.000
F3000
G1 X 250.143 Y  50.219
G1 X 240.706 Y  56.762
G1 X 251.456 Y  55.762
G1 X 251.456 Y  56.305
G2 X 251.456 Y  50.219 I   0.000 J  -3.043
G1 Z 135.500
G0 Z 190.000 
G40
G0 X 251.456 Y  50.219
G0 Z 135.500 
F150
G1 Z 135.000
F3000
G1 X 251.456 Y  50.762
G3 X 251.456 Y  55.762 I   0.000 J   2.500
G1 X 249.456 Y  55.762
G1 Z 135.500
G0 Z 190.000 
G40
G0 X 243.956 Y  46.762
G0 Z 135.500 
F150
G1 Z 135.000
F3000
G1 X 243.956 Y  56.512
G1 Z 135.500
G0 Z 190.000 
G40
G0 X 240.831 Y  46.762
G0 Z 135.500 
F150
G1 Z 135.000
F3000
G1 X 240.831 Y  56.512
G1 X 240.706 Y  56.762
G1 X 243.285 Y -55.741
G1 X 243.331 Y -55.821
G1 X 243.331 Y -55.821
G1 Z 135.500
G0 Z 190.000 
G40
G0 X 243.285 Y -55.741
G0 Z 135.500 
F150
G1 Z 135.000
F3000
G3 X 243.285 Y -53.735 I  -0.579 J   1.003
G1 X 241.530 Y -52.721
G1 X 241.372 Y -56.846
G1 X 243.285 Y -55.741
G3 X 243.285 Y -53.735 I  -0.579 J   1.003
G1 Z 135.500
G0 Z 190.000 
G40
G0 X 242.490 Y -55.113
G0 Z 135.500 
F150
G1 Z 135.000
F3000
G1 X 242.273 Y -54.738
G1 X 242.490 Y -54.363
G1 X 242.923 Y -54.363
G1 X 243.139 Y -54.738
G1 X 242.923 Y -55.113
G1 X 242.490 Y -55.113
G1 Z 135.500
G0 Z 190.000 
G40
G0 X 242.087 Y -55.357
G0 Z 135.500 
F150
G1 Z 135.000
F3000
G2 X 242.087 Y -55.357 I   0.619 J   0.619
G1 Z 135.500
G0 Z 190.000 
G40
G0 X 241.999 Y -55.445
G0 Z 135.500 
F150
G1 Z 135.000
F3000
G2 X 241.999 Y -55.445 I   0.707 J   0.707
G1 Z 135.500
G0 Z 190.000 
G40
G0 X 241.390 Y -56.906
G0 Z 135.500 
F150
G1 Z 135.000
F3000
G1 X 241.382 Y -56.875
G1 X 241.372 Y -56.846
G1 X 241.530 Y -52.721
G1 Z 135.500
G0 Z 190.000 
G40
G0 X 241.530 Y -52.721
G0 Z 135.500 
F150
G1 Z 135.000
F3000
G1 X 241.542 Y -52.693
G1 X 241.553 Y -52.664
G1 Z 135.500
G0 Z 190.000 
G40
G0 X 241.562 Y -52.634
G0 Z 135.500 
F150
G1 Z 135.000
F3000
G1 X 243.331 Y -53.655
G1 X 243.285 Y -53.735
G1 X 241.530 Y -52.721
G1 Z 135.500
G0 Z 190.000 
G40
G0 X 239.317 Y -54.182
G0 Z 135.500 
F150
G1 Z 135.000
F3000
G1 X 240.513 Y -22.920
G3 X 235.226 Y -12.907 I -11.307 J   0.433
G1 Z 135.500
G0 Z 190.000 
G40
G0 X 225.206 Y -10.799
G0 Z 135.500 
F150
G1 Z 135.000
F3000
G1 X 220.063 Y -10.799
G3 X 212.426 Y -17.600 I   0.000 J  -7.688
G3 X 212.741 Y -43.076 I  99.021 J -11.515
G3 X 216.281 Y -54.320 I  77.118 J  18.100
G1 X 216.334 Y -54.322
G1 X 216.438 Y -54.300
G1 Z 135.500
G0 Z 190.000 
G40
G0 X 216.577 Y -54.257
G0 Z 135.500 
F150
G1 Z 135.000
F3000
G1 X 216.627 Y -54.182
G1 X 228.518 Y -54.182
G1 Z 135.500
G0 Z 190.000 
G40
G0 X 231.894 Y -54.182
G0 Z 135.500 
F150
G1 Z 135.000
F3000
G1 X 239.317 Y -54.182
G1 Z 135.500
G0 Z 190.000 
G40
G0 X 241.398 Y -56.937
G0 Z 135.500 
F150
G1 Z 135.000
F3000
G1 X 241.198 Y -62.158
G2 X 221.451 Y -68.398 I -10.992 J   0.421
G2 X 215.701 Y -57.622 I  68.408 J  43.422
G1 X 212.581 Y -55.821
G1 X 212.627 Y -55.741
G2 X 212.627 Y -53.735 I   0.579 J   1.003
G1 X 212.581 Y -53.655
G1 X 213.814 Y -52.944
G2 X 210.959 Y -43.410 I  76.045 J  27.968
G1 X 213.108 Y -43.007
G3 X 216.627 Y -54.182 I  76.751 J  18.031
G1 X 228.518 Y -54.182
G1 Z 135.500
G0 Z 190.000 
G40
G0 X 232.344 Y -54.292
G0 Z 135.500 
F150
G1 Z 135.000
F3000
G1 X 239.317 Y -54.292
G1 X 239.307 Y -57.006
G1 X 239.312 Y -59.664
G1 Z 135.500
G0 Z 190.000 
G40
G0 X 230.706 Y -60.461
G0 Z 135.500 
F150
G1 Z 135.000
F3000
G1 X 230.706 Y -61.738
G1 X 229.706 Y -61.738
G1 X 229.706 Y -60.461
G1 Z 135.500
G0 Z 190.000 
G40
G0 X 230.206 Y -61.238
G0 Z 135.500 
F150
G1 Z 135.000
F3000
G1 X 230.206 Y -40.363
G1 X 230.206 Y -30.488
G1 X 246.901 Y -30.488
G1 Z 135.500
G0 Z 190.000 
G40
G0 X 237.831 Y -29.853
G0 Z 135.500 
F150
G1 Z 135.000
F3000
G1 X 237.831 Y -25.613
G3 X 235.209 Y -22.225 I  -3.500 J   0.000
G1 Z 135.500
G0 Z 190.000 
G40
G0 X 237.831 Y -31.123
G0 Z 135.500 
F150
G1 Z 135.000
F3000
G1 X 237.831 Y -37.238
G1 X 238.206 Y -37.238
G2 X 238.456 Y -37.488 I   0.000 J  -0.250
G1 X 238.456 Y -47.738
G2 X 237.956 Y -48.238 I  -0.500 J   0.000
G1 X 231.706 Y -48.238
G2 X 231.206 Y -47.738 I   0.000 J   0.500
G1 X 231.206 Y -38.613
G3 X 231.057 Y -38.088 I  -1.000 J   0.000
G1 Z 135.500
G0 Z 190.000 
G40
G0 X 232.845 Y -37.681
G0 Z 135.500 
F150
G1 Z 135.000
F3000
G3 X 233.583 Y -37.357 I   0.612 J  -0.389
G1 Z 135.500
G0 Z 190.000 
G40
G0 X 233.419 Y -37.445
G0 Z 135.500 
F150
G1 Z 135.000
F3000
G1 X 233.817 Y -37.445
G1 X 234.178 Y -38.070
G1 X 233.817 Y -38.695
G1 X 233.095 Y -38.695
G1 X 232.734 Y -38.070
G1 X 232.983 Y -37.640
G1 Z 135.500
G0 Z 190.000 
G40
G0 X 233.279 Y -38.247
G0 Z 135.500 
F150
G1 Z 135.000
F3000
G2 X 233.279 Y -38.247 I   0.177 J   0.177
G1 Z 135.500
G0 Z 190.000 
G40
G0 X 236.345 Y -38.349
G0 Z 135.500 
F150
G1 Z 135.000
F3000
G2 X 236.345 Y -38.349 I   0.486 J   0.486
G1 Z 135.500
G0 Z 190.000 
G40
G0 X 236.416 Y -38.278
G0 Z 135.500 
F150
G1 Z 135.000
F3000
G2 X 236.416 Y -38.278 I   0.415 J   0.415
G1 Z 135.500
G0 Z 190.000 
G40
G0 X 236.651 Y -38.175
G0 Z 135.500 
F150
G1 Z 135.000
F3000
G1 X 236.470 Y -37.863
G1 X 236.651 Y -37.550
G1 X 237.012 Y -37.550
G1 X 237.192 Y -37.863
G1 X 237.012 Y -38.175
G1 X 236.651 Y -38.175
G1 Z 135.500
G0 Z 190.000 
G40
G0 X 238.081 Y -37.238
G0 Z 135.500 
F150
G1 Z 135.000
F3000
G2 X 237.831 Y -36.988 I   0.000 J   0.250
G1 Z 135.500
G0 Z 190.000 
G40
G0 X 236.956 Y -40.162
G0 Z 135.500 
F150
G1 Z 135.000
F3000
G1 X 236.956 Y -39.564
G1 Z 135.500
G0 Z 190.000 
G40
G0 X 236.601 Y -40.093
G0 Z 135.500 
F150
G1 Z 135.000
F3000
G2 X 236.601 Y -40.093 I   0.230 J   0.230
G1 Z 135.500
G0 Z 190.000 
G40
G0 X 236.478 Y -40.217
G0 Z 135.500 
F150
G1 Z 135.000
F3000
G2 X 236.478 Y -40.217 I   0.354 J   0.354
G1 Z 135.500
G0 Z 190.000 
G40
G0 X 236.124 Y -40.570
G0 Z 135.500 
F150
G1 Z 135.000
F3000
G2 X 236.124 Y -40.570 I   0.707 J   0.707
G1 Z 135.500
G0 Z 190.000 
G40
G0 X 236.601 Y -42.468
G0 Z 135.500 
F150
G1 Z 135.000
F3000
G2 X 236.601 Y -42.468 I   0.230 J   0.230
G1 Z 135.500
G0 Z 190.000 
G40
G0 X 236.956 Y -42.536
G0 Z 135.500 
F150
G1 Z 135.000
F3000
G1 X 236.956 Y -41.940
G1 Z 135.500
G0 Z 190.000 
G40
G0 X 236.301 Y -42.768
G0 Z 135.500 
F150
G1 Z 135.000
F3000
G2 X 236.301 Y -42.768 I   0.530 J   0.530
G1 Z 135.500
G0 Z 190.000 
G40
G0 X 235.947 Y -43.122
G0 Z 135.500 
F150
G1 Z 135.000
F3000
G2 X 235.947 Y -43.122 I   0.884 J   0.884
G1 Z 135.500
G0 Z 190.000 
G40
G0 X 236.601 Y -45.093
G0 Z 135.500 
F150
G1 Z 135.000
F3000
G2 X 236.601 Y -45.093 I   0.230 J   0.230
G1 Z 135.500
G0 Z 190.000 
G40
G0 X 236.956 Y -45.161
G0 Z 135.500 
F150
G1 Z 135.000
F3000
G1 X 236.956 Y -44.565
G1 Z 135.500
G0 Z 190.000 
G40
G0 X 237.111 Y -45.009
G0 Z 135.500 
F150
G1 Z 135.000
F3000
G2 X 236.987 Y -44.589 I   1.845 J   0.771
G1 Z 135.500
G0 Z 190.000 
G40
G0 X 236.301 Y -45.393
G0 Z 135.500 
F150
G1 Z 135.000
F3000
G2 X 236.301 Y -45.393 I   0.530 J   0.530
G1 Z 135.500
G0 Z 190.000 
G40
G0 X 235.947 Y -45.747
G0 Z 135.500 
F150
G1 Z 135.000
F3000
G2 X 235.947 Y -45.747 I   0.884 J   0.884
G1 Z 135.500
G0 Z 190.000 
G40
G0 X 237.219 Y -46.051
G0 Z 135.500 
F150
G1 Z 135.000
F3000
G1 X 237.706 Y -46.051
G3 X 238.206 Y -45.551 I   0.000 J   0.500
G1 X 238.206 Y -39.175
G3 X 237.706 Y -38.675 I  -0.500 J   0.000
G1 X 235.956 Y -38.675
G3 X 235.456 Y -39.175 I   0.000 J  -0.500
G1 X 235.456 Y -45.551
G3 X 235.956 Y -46.051 I   0.500 J   0.000
G1 X 236.444 Y -46.051
G1 Z 135.500
G0 Z 190.000 
G40
G0 X 236.651 Y -47.175
G0 Z 135.500 
F150
G1 Z 135.000
F3000
G1 X 236.470 Y -46.863
G1 X 236.651 Y -46.550
G1 X 237.012 Y -46.550
G1 X 237.192 Y -46.863
G1 X 237.012 Y -47.175
G1 X 236.651 Y -47.175
G1 Z 135.500
G0 Z 190.000 
G40
G0 X 236.416 Y -47.278
G0 Z 135.500 
F150
G1 Z 135.000
F3000
G2 X 236.416 Y -47.278 I   0.415 J   0.415
G1 Z 135.500
G0 Z 190.000 
G40
G0 X 236.345 Y -47.349
G0 Z 135.500 
F150
G1 Z 135.000
F3000
G2 X 236.345 Y -47.349 I   0.486 J   0.486
G1 Z 135.500
G0 Z 190.000 
G40
G0 X 233.279 Y -46.577
G0 Z 135.500 
F150
G1 Z 135.000
F3000
G2 X 233.279 Y -46.577 I   0.177 J   0.177
G1 Z 135.500
G0 Z 190.000 
G40
G0 X 232.943 Y -46.913
G0 Z 135.500 
F150
G1 Z 135.000
F3000
G2 X 232.943 Y -46.913 I   0.513 J   0.513
G1 Z 135.500
G0 Z 190.000 
G40
G0 X 233.095 Y -47.025
G0 Z 135.500 
F150
G1 Z 135.000
F3000
G1 X 232.734 Y -46.400
G1 X 233.095 Y -45.775
G1 X 233.817 Y -45.775
G1 X 234.178 Y -46.400
G1 X 233.817 Y -47.025
G1 X 233.095 Y -47.025
G1 Z 135.500
G0 Z 190.000 
G40
G0 X 233.636 Y -45.700
G0 Z 135.500 
F150
G1 Z 135.000
F3000
G1 X 234.438 Y -45.558
G3 X 234.769 Y -45.164 I  -0.069 J   0.394
G1 X 234.769 Y -39.561
G3 X 234.438 Y -39.168 I  -0.400 J   0.000
G1 X 232.613 Y -38.846
G3 X 232.144 Y -39.240 I  -0.069 J  -0.394
G1 X 232.144 Y -45.486
G3 X 232.613 Y -45.880 I   0.400 J   0.000
G1 X 233.044 Y -45.804
G1 Z 135.500
G0 Z 190.000 
G40
G0 X 232.479 Y -44.713
G0 Z 135.500 
F150
G1 Z 135.000
F3000
G1 X 232.479 Y -39.758
G2 X 233.065 Y -39.265 I   0.500 J   0.000
G1 X 234.020 Y -39.434
G2 X 234.434 Y -39.926 I  -0.087 J  -0.492
G1 X 234.434 Y -44.545
G2 X 234.020 Y -45.037 I  -0.500 J   0.000
G1 X 233.065 Y -45.206
G2 X 232.479 Y -44.713 I  -0.087 J   0.492
G1 Z 135.500
G0 Z 190.000 
G40
G0 X 234.750 Y -50.319
G0 Z 135.500 
F150
G1 Z 135.000
F3000
G2 X 234.750 Y -50.319 I   0.831 J   0.831
G1 Z 135.500
G0 Z 190.000 
G40
G0 X 221.316 Y -61.738
G0 Z 135.500 
F150
G1 Z 135.000
F3000
G1 X 229.706 Y -61.738
G1 Z 135.500
G0 Z 190.000 
G40
G0 X 223.858 Y -69.014
G0 Z 135.500 
F150
G1 Z 135.000
F3000
G1 X 225.122 Y -70.054
G1 X 226.459 Y -70.809
G1 X 227.811 Y -71.303
G1 X 229.159 Y -71.567
G1 X 230.494 Y -71.624
G1 X 231.829 Y -71.480
G1 X 233.181 Y -71.121
G1 X 234.519 Y -70.526
G1 X 235.793 Y -69.684
G1 X 236.955 Y -68.593
G1 X 237.949 Y -67.256
G1 X 238.719 Y -65.685
G1 X 239.191 Y -63.958
G1 X 239.329 Y -62.257
G1 Z 135.500
G0 Z 190.000 
G40
G0 X 223.601 Y -69.064
G0 Z 135.500 
F150
G1 Z 135.000
F3000
G1 X 224.915 Y -70.136
G1 X 226.305 Y -70.916
G1 X 227.711 Y -71.426
G1 X 229.113 Y -71.699
G1 X 230.499 Y -71.758
G1 X 231.887 Y -71.611
G1 X 233.292 Y -71.242
G1 X 234.684 Y -70.630
G1 X 236.010 Y -69.764
G1 X 237.219 Y -68.640
G1 X 238.256 Y -67.262
G1 X 239.060 Y -65.642
G1 X 239.555 Y -63.859
G1 X 239.702 Y -62.101
G1 X 241.198 Y -62.158
G1 X 241.398 Y -56.937
G1 X 243.331 Y -55.821
G3 X 243.331 Y -53.655 I  -0.625 J   1.083
G1 X 241.562 Y -52.634
G1 X 242.696 Y -23.004
G3 X 242.705 Y -22.624 I -13.490 J   0.516
G1 X 244.568 Y -21.578
G1 X 244.523 Y -21.498
G1 X 242.677 Y -22.535
G3 X 241.873 Y -17.905 I -13.471 J   0.047
G1 X 244.547 Y -19.492
G1 X 244.594 Y -19.413
G1 X 241.863 Y -17.793
G3 X 235.219 Y -10.401 I -12.657 J  -4.695
G1 Z 135.500
G0 Z 190.000 
G40
G0 X 221.456 Y  -8.988
G0 Z 135.500 
F150
G1 Z 135.000
F3000
G1 X 221.456 Y   9.998
G3 X 221.042 Y  14.529 I -25.000 J   0.000
G1 Z 135.500
G0 Z 190.000 
G40
G0 X 225.205 Y  12.124
G0 Z 135.500 
F150
G1 Z 135.000
F3000
G2 X 215.680 Y  25.762 I   5.001 J  13.638
G1 Z 135.500
G0 Z 190.000 
G40
G0 X 216.206 Y  25.762
G0 Z 135.500 
F150
G1 Z 135.000
F3000
G1 X 230.206 Y  25.762
G1 X 230.206 Y  81.740
G1 Z 135.500
G0 Z 190.000 
G40
G0 X 226.956 Y  50.412
G0 Z 135.500 
F150
G1 Z 135.000
F3000
G1 X 226.956 Y  60.662
G1 Z 135.500
G0 Z 190.000 
G40
G0 X 227.081 Y  50.287
G0 Z 135.500 
F150
G1 Z 135.000
F3000
G1 X 235.331 Y  50.287
G1 Z 135.500
G0 Z 190.000 
G40
G0 X 235.456 Y  50.412
G0 Z 135.500 
F150
G1 Z 135.000
F3000
G1 X 235.456 Y  60.662
G1 Z 135.500
G0 Z 190.000 
G40
G0 X 231.027 Y  48.726
G0 Z 135.500 
F150
G1 Z 135.000
F3000
G1 X 230.847 Y  49.037
G1 X 231.027 Y  49.348
G1 X 231.385 Y  49.348
G1 X 231.565 Y  49.037
G1 X 231.385 Y  48.726
G1 X 231.027 Y  48.726
G1 Z 135.500
G0 Z 190.000 
G40
G0 X 230.773 Y  48.604
G0 Z 135.500 
F150
G1 Z 135.000
F3000
G2 X 230.773 Y  48.604 I   0.433 J   0.433
G1 Z 135.500
G0 Z 190.000 
G40
G0 X 230.720 Y  48.551
G0 Z 135.500 
F150
G1 Z 135.000
F3000
G2 X 230.720 Y  48.551 I   0.486 J   0.486
G1 Z 135.500
G0 Z 190.000 
G40
G0 X 227.081 Y  47.787
G0 Z 135.500 
F150
G1 Z 135.000
F3000
G1 X 227.081 Y  50.412
G1 X 226.831 Y  50.412
G1 X 226.831 Y  60.662
G1 X 227.081 Y  60.662
G1 X 227.081 Y  63.287
G1 X 235.331 Y  63.287
G1 X 235.331 Y  60.662
G1 X 235.581 Y  60.662
G1 X 235.581 Y  50.412
G1 X 235.331 Y  50.412
G1 X 235.331 Y  47.787
G1 X 227.081 Y  47.787
G1 Z 135.500
G0 Z 190.000 
G40
G0 X 227.081 Y  50.037
G0 Z 135.500 
F150
G1 Z 135.000
F3000
G1 X 235.331 Y  50.037
G1 Z 135.500
G0 Z 190.000 
G40
G0 X 240.706 Y  46.762
G0 Z 135.500 
F150
G1 Z 135.000
F3000
G1 X 240.706 Y  56.762
G1 X 244.206 Y  56.762
G1 X 244.206 Y  46.762
G1 X 240.706 Y  46.762
G1 Z 135.500
G0 Z 190.000 
G40
G0 X 241.206 Y  45.637
G0 Z 135.500 
F150
G1 Z 135.000
F3000
G2 X 239.956 Y  46.887 I   0.000 J   1.250
G1 X 239.956 Y  56.637
G2 X 241.206 Y  57.887 I   1.250 J   0.000
G1 X 243.456 Y  57.887
G2 X 244.706 Y  56.637 I   0.000 J  -1.250
G1 X 244.706 Y  46.887
G2 X 243.456 Y  45.637 I  -1.250 J   0.000
G1 X 241.206 Y  45.637
G1 Z 135.500
G0 Z 190.000 
G40
G0 X 240.206 Y  41.762
G0 Z 135.500 
F150
G1 Z 135.000
F3000
G1 X 224.206 Y  41.762
G1 X 224.206 Y  44.387
G1 X 240.206 Y  44.387
G1 Z 135.500
G0 Z 190.000 
G40
G0 X 243.337 Y  41.143
G0 Z 135.500 
F150
G1 Z 135.000
F3000
G2 X 243.337 Y  41.143 I   0.619 J   0.619
G1 Z 135.500
G0 Z 190.000 
G40
G0 X 243.470 Y  41.276
G0 Z 135.500 
F150
G1 Z 135.000
F3000
G2 X 243.470 Y  41.276 I   0.486 J   0.486
G1 Z 135.500
G0 Z 190.000 
G40
G0 X 243.647 Y  41.453
G0 Z 135.500 
F150
G1 Z 135.000
F3000
G2 X 243.647 Y  41.453 I   0.309 J   0.309
G1 Z 135.500
G0 Z 190.000 
G40
G0 X 248.706 Y  36.762
G0 Z 135.500 
F150
G1 Z 135.000
F3000
G1 X 248.706 Y  79.012
G1 X 248.206 Y  79.512
G1 X 248.206 Y  80.038
G1 X 212.206 Y  80.038
G1 X 212.206 Y  79.512
G1 X 211.706 Y  79.012
G1 X 211.706 Y  36.762
G1 Z 135.500
G0 Z 190.000 
G40
G0 X 210.688 Y  25.762
G0 Z 135.500 
F150
G1 Z 135.000
F3000
G1 X 215.680 Y  25.762
G1 Z 135.500
G0 Z 190.000 
G40
G0 X 217.087 Y  25.143
G0 Z 135.500 
F150
G1 Z 135.000
F3000
G2 X 217.087 Y  25.143 I   0.619 J   0.619
G1 Z 135.500
G0 Z 190.000 
G40
G0 X 217.490 Y  25.387
G0 Z 135.500 
F150
G1 Z 135.000
F3000
G1 X 217.273 Y  25.762
G1 X 217.490 Y  26.137
G1 X 217.923 Y  26.137
G1 X 218.139 Y  25.762
G1 X 217.923 Y  25.387
G1 X 217.490 Y  25.387
G1 Z 135.500
G0 Z 190.000 
G40
G0 X 225.176 Y  23.893
G0 Z 135.500 
F150
G1 Z 135.000
F3000
G2 X 235.236 Y  23.893 I   5.030 J   1.894
G1 Z 135.500
G0 Z 190.000 
G40
G0 X 242.087 Y  25.143
G0 Z 135.500 
F150
G1 Z 135.000
F3000
G2 X 242.087 Y  25.143 I   0.619 J   0.619
G1 Z 135.500
G0 Z 190.000 
G40
G0 X 242.490 Y  25.387
G0 Z 135.500 
F150
G1 Z 135.000
F3000
G1 X 242.273 Y  25.762
G1 X 242.490 Y  26.137
G1 X 242.923 Y  26.137
G1 X 243.139 Y  25.762
G1 X 242.923 Y  25.387
G1 X 242.490 Y  25.387
G1 Z 135.500
G0 Z 190.000 
G40
G0 X 244.206 Y  25.762
G0 Z 135.500 
F150
G1 Z 135.000
F3000
G1 X 244.206 Y  32.262
G1 X 248.956 Y  37.012
G1 X 248.956 Y  50.003
G1 X 249.482 Y  49.478
G1 X 249.482 Y  36.794
G1 X 244.732 Y  32.044
G1 X 244.732 Y  25.762
G1 X 244.206 Y  25.762
G1 Z 135.500
G0 Z 190.000 
G40
G0 X 244.206 Y  25.762
G0 Z 135.500 
F150
G1 Z 135.000
F3000
G1 X 244.206 Y  32.262
G1 X 244.732 Y  32.044
G1 X 249.482 Y  36.794
G1 Z 135.500
G0 Z 190.000 
G40
G0 X 248.956 Y  37.012
G0 Z 135.500 
F150
G1 Z 135.000
F3000
G1 X 248.956 Y  50.003
G1 X 248.971 Y  50.150
G1 X 249.013 Y  50.290
G1 X 249.082 Y  50.420
G1 X 249.176 Y  50.534
G1 X 249.289 Y  50.627
G1 Z 135.500
G0 Z 190.000 
G40
G0 X 244.206 Y  32.262
G0 Z 135.500 
F150
G1 Z 135.000
F3000
G1 X 248.956 Y  37.012
G1 X 249.482 Y  36.794
G1 X 249.482 Y  49.478
G1 Z 135.500
G0 Z 190.000 
G40
G0 X 227.081 Y  50.162
G0 Z 135.500 
F150
G1 Z 135.000
F3000
G1 X 235.331 Y  50.162
G1 Z 135.500
G0 Z 190.000 
G40
G0 X 223.956 Y  43.137
G0 Z 135.500 
F150
G1 Z 135.000
F3000
G2 X 224.206 Y  43.696 I   0.750 J   0.000
G1 Z 135.500
G0 Z 190.000 
G40
G0 X 224.206 Y  42.328
G0 Z 135.500 
F150
G1 Z 135.000
F3000
G2 X 223.956 Y  42.887 I   0.501 J   0.559
G1 Z 135.500
G0 Z 190.000 
G40
G0 X 223.956 Y  41.512
G0 Z 135.500 
F150
G1 Z 135.000
F3000
G1 X 223.956 Y  44.512
G1 X 240.206 Y  44.512
G1 X 240.206 Y  41.512
G1 X 223.956 Y  41.512
G1 Z 135.500
G0 Z 190.000 
G40
G0 X 223.956 Y  40.637
G0 Z 135.500 
F150
G1 Z 135.000
F3000
G2 X 222.706 Y  41.887 I   0.000 J   1.250
G1 X 222.706 Y  44.137
G2 X 223.956 Y  45.387 I   1.250 J   0.000
G1 X 239.956 Y  45.387
G2 X 241.206 Y  44.137 I   0.000 J  -1.250
G1 X 241.206 Y  41.887
G2 X 239.956 Y  40.637 I  -1.250 J   0.000
G1 X 223.956 Y  40.637
G1 Z 135.500
G0 Z 190.000 
G40
G0 X 225.202 Y  21.350
G0 Z 135.500 
F150
G1 Z 135.000
F3000
G2 X 235.210 Y  21.350 I   5.004 J   4.437
G1 Z 135.500
G0 Z 190.000 
G40
G0 X 235.213 Y  12.688
G0 Z 135.500 
F150
G1 Z 135.000
F3000
G3 X 244.206 Y  25.762 I  -5.007 J  13.074
G1 X 244.732 Y  25.762
G1 Z 135.500
G0 Z 190.000 
G40
G0 X 244.732 Y  25.762
G0 Z 135.500 
F150
G1 Z 135.000
F3000
G1 X 249.584 Y  25.762
G1 Z 135.500
G0 Z 190.000 
G40
G0 X 235.207 Y  12.124
G0 Z 135.500 
F150
G1 Z 135.000
F3000
G3 X 244.732 Y  25.762 I  -5.001 J  13.638
G1 X 244.732 Y  32.044
G1 Z 135.500
G0 Z 190.000 
G40
G0 X 225.179 Y  19.971
G0 Z 135.500 
F150
G1 Z 135.000
F3000
G2 X 235.233 Y  19.971 I   5.027 J   5.816
G1 Z 135.500
G0 Z 190.000 
G40
G0 X 220.206 Y  -8.988
G0 Z 135.500 
F150
G1 Z 135.000
F3000
G1 X 225.206 Y  -8.988
G1 X 220.063 Y  -8.988
G1 X 220.063 Y -11.172
G1 X 225.206 Y -11.172
G1 Z 135.500
G0 Z 190.000 
G40
G0 X 220.063 Y -11.172
G0 Z 135.500 
F150
G1 Z 135.000
F3000
G1 X 220.063 Y  -8.988
G3 X 210.626 Y -17.390 I   0.000 J  -9.500
G1 X 212.796 Y -17.643
G1 Z 135.500
G0 Z 190.000 
G40
G0 X 208.627 Y -19.485
G0 Z 135.500 
F150
G1 Z 135.000
F3000
G1 X 210.546 Y -18.377
G1 X 210.538 Y -18.346
G1 X 210.532 Y -18.314
G1 Z 135.500
G0 Z 190.000 
G40
G0 X 208.990 Y -20.863
G0 Z 135.500 
F150
G1 Z 135.000
F3000
G1 X 208.773 Y -20.488
G1 X 208.990 Y -20.113
G1 X 209.423 Y -20.113
G1 X 209.639 Y -20.488
G1 X 209.423 Y -20.863
G1 X 208.990 Y -20.863
G1 Z 135.500
G0 Z 190.000 
G40
G0 X 208.587 Y -21.107
G0 Z 135.500 
F150
G1 Z 135.000
F3000
G2 X 208.587 Y -21.107 I   0.619 J   0.619
G1 Z 135.500
G0 Z 190.000 
G40
G0 X 208.499 Y -21.195
G0 Z 135.500 
F150
G1 Z 135.000
F3000
G2 X 208.499 Y -21.195 I   0.707 J   0.707
G1 Z 135.500
G0 Z 190.000 
G40
G0 X 208.627 Y -21.491
G0 Z 135.500 
F150
G1 Z 135.000
F3000
G1 X 210.199 Y -22.398
G2 X 210.546 Y -18.377 I 101.248 J  -6.716
G1 X 208.627 Y -19.485
G1 X 208.581 Y -19.405
G1 X 208.956 Y  56.305
G1 Z 135.500
G0 Z 190.000 
G40
G0 X 208.627 Y -21.491
G0 Z 135.500 
F150
G1 Z 135.000
F3000
G1 X 208.581 Y -21.571
G2 X 208.581 Y -19.405 I   0.625 J   1.083
G1 X 210.526 Y -18.282
G1 Z 135.500
G0 Z 190.000 
G40
G0 X 208.581 Y -21.571
G0 Z 135.500 
F150
G1 Z 135.000
F3000
G1 X 210.164 Y -22.484
G1 X 210.174 Y -22.455
G1 Z 135.500
G0 Z 190.000 
G40
G0 X 210.186 Y -22.426
G0 Z 135.500 
F150
G1 Z 135.000
F3000
G1 X 210.199 Y -22.398
G1 X 208.627 Y -21.491
G1 Z 135.500
G0 Z 190.000 
G40
G0 X 206.664 Y -30.488
G0 Z 135.500 
F150
G1 Z 135.000
F3000
G1 X 230.206 Y -30.488
G1 X 230.206 Y  25.762
G1 X 230.206 Y  81.740
G1 Z 135.500
G0 Z 190.000 
G40
G0 X 225.202 Y -22.150
G0 Z 135.500 
F150
G1 Z 135.000
F3000
G3 X 222.206 Y -25.613 I   0.505 J  -3.463
G1 X 222.206 Y -27.988
G2 X 221.706 Y -28.488 I  -0.500 J   0.000
G1 X 219.206 Y -28.488
G3 X 215.706 Y -31.988 I   0.000 J  -3.500
G1 X 215.706 Y -32.770
G3 X 216.731 Y -35.245 I   3.500 J   0.000
G1 X 218.733 Y -37.247
G3 X 219.617 Y -37.613 I   0.884 J   0.884
G1 X 227.339 Y -37.613
G1 Z 135.500
G0 Z 190.000 
G40
G0 X 225.206 Y -30.488
G0 Z 135.500 
F150
G1 Z 135.000
F3000
G1 X 225.206 Y  25.787
G2 X 235.206 Y  25.787 I   5.000 J   0.000
G1 X 235.206 Y -30.488
G2 X 225.206 Y -30.488 I  -5.000 J   0.000
G1 Z 135.500
G0 Z 190.000 
G40
G0 X 225.176 Y -28.594
G0 Z 135.500 
F150
G1 Z 135.000
F3000
G3 X 235.236 Y -28.594 I   5.030 J  -1.894
G1 Z 135.500
G0 Z 190.000 
G40
G0 X 230.206 Y -30.488
G0 Z 135.500 
F150
G1 Z 135.000
F3000
G1 X 230.206 Y  25.762
G1 X 244.206 Y  25.762
G1 Z 135.500
G0 Z 190.000 
G40
G0 X 225.184 Y -24.668
G0 Z 135.500 
F150
G1 Z 135.000
F3000
G3 X 235.228 Y -24.668 I   5.022 J  -5.820
G1 Z 135.500
G0 Z 190.000 
G40
G0 X 225.184 Y -26.460
G0 Z 135.500 
F150
G1 Z 135.000
F3000
G3 X 235.228 Y -26.460 I   5.022 J  -4.028
G1 Z 135.500
G0 Z 190.000 
G40
G0 X 218.868 Y -32.605
G0 Z 135.500 
F150
G1 Z 135.000
F3000
G3 X 220.017 Y -32.245 I   1.338 J  -2.258
G1 Z 135.500
G0 Z 190.000 
G40
G0 X 217.895 Y -31.924
G0 Z 135.500 
F150
G1 Z 135.000
F3000
G2 X 217.895 Y -31.924 I   1.061 J   1.061
G1 Z 135.500
G0 Z 190.000 
G40
G0 X 217.719 Y -32.100
G0 Z 135.500 
F150
G1 Z 135.000
F3000
G2 X 217.719 Y -32.100 I   1.237 J   1.237
G1 Z 135.500
G0 Z 190.000 
G40
G0 X 219.411 Y -35.658
G0 Z 135.500 
F150
G1 Z 135.000
F3000
G2 X 219.411 Y -35.658 I   0.795 J   0.795
G1 Z 135.500
G0 Z 190.000 
G40
G0 X 219.234 Y -35.835
G0 Z 135.500 
F150
G1 Z 135.000
F3000
G2 X 219.234 Y -35.835 I   0.972 J   0.972
G1 Z 135.500
G0 Z 190.000 
G40
G0 X 218.880 Y -36.189
G0 Z 135.500 
F150
G1 Z 135.000
F3000
G2 X 218.880 Y -36.189 I   1.326 J   1.326
G1 Z 135.500
G0 Z 190.000 
G40
G0 X 215.625 Y -37.569
G0 Z 135.500 
F150
G1 Z 135.000
F3000
G2 X 215.625 Y -37.569 I   0.831 J   0.831
G1 Z 135.500
G0 Z 190.000 
G40
G0 X 210.959 Y -43.410
G0 Z 135.500 
F150
G1 Z 135.000
F3000
G1 X 213.108 Y -43.007
G2 X 212.796 Y -17.643 I  98.339 J  13.893
G1 Z 135.500
G0 Z 190.000 
G40
G0 X 217.333 Y -45.236
G0 Z 135.500 
F150
G1 Z 135.000
F3000
G2 X 217.333 Y -45.236 I   2.298 J   2.298
G1 Z 135.500
G0 Z 190.000 
G40
G0 X 217.068 Y -45.501
G0 Z 135.500 
F150
G1 Z 135.000
F3000
G2 X 217.068 Y -45.501 I   2.563 J   2.563
G1 Z 135.500
G0 Z 190.000 
G40
G0 X 216.966 Y -45.728
G0 Z 135.500 
F150
G1 Z 135.000
F3000
G2 X 216.966 Y -45.728 I   2.740 J   2.740
G1 Z 135.500
G0 Z 190.000 
G40
G0 X 213.814 Y -52.944
G0 Z 135.500 
F150
G1 Z 135.000
F3000
G2 X 210.959 Y -43.410 I  76.045 J  27.968
G2 X 210.164 Y -22.484 I 100.488 J  14.296
G1 X 208.581 Y -21.571
G1 X 208.627 Y -21.491
G2 X 208.627 Y -19.485 I   0.579 J   1.003
G1 X 208.581 Y -19.405
G1 X 210.526 Y -18.282
G2 X 210.626 Y -17.390 I 100.920 J -10.832
G1 X 212.796 Y -17.643
G2 X 220.063 Y -11.172 I   7.266 J  -0.845
G1 X 225.206 Y -11.172
G1 Z 135.500
G0 Z 190.000 
G40
G0 X 213.791 Y -52.957
G0 Z 135.500 
F150
G1 Z 135.000
F3000
G2 X 210.630 Y -42.063 I  76.043 J  27.973
G2 X 209.946 Y -30.200 I 100.816 J  11.765
G1 Z 135.500
G0 Z 190.000 
G40
G0 X 213.872 Y -53.016
G0 Z 135.500 
F150
G1 Z 135.000
F3000
G1 X 213.851 Y -52.993
G1 X 213.832 Y -52.969
G1 Z 135.500
G0 Z 190.000 
G40
G0 X 212.990 Y -55.113
G0 Z 135.500 
F150
G1 Z 135.000
F3000
G1 X 212.773 Y -54.738
G1 X 212.990 Y -54.363
G1 X 213.423 Y -54.363
G1 X 213.639 Y -54.738
G1 X 213.423 Y -55.113
G1 X 212.990 Y -55.113
G1 Z 135.500
G0 Z 190.000 
G40
G0 X 212.587 Y -55.357
G0 Z 135.500 
F150
G1 Z 135.000
F3000
G2 X 212.587 Y -55.357 I   0.619 J   0.619
G1 Z 135.500
G0 Z 190.000 
G40
G0 X 212.499 Y -55.445
G0 Z 135.500 
F150
G1 Z 135.000
F3000
G2 X 212.499 Y -55.445 I   0.707 J   0.707
G1 Z 135.500
G0 Z 190.000 
G40
G0 X 212.627 Y -55.741
G0 Z 135.500 
F150
G1 Z 135.000
F3000
G1 X 215.682 Y -57.505
G2 X 213.872 Y -53.016 I  74.177 J  32.529
G1 X 212.627 Y -53.735
G1 X 212.581 Y -53.655
G1 X 240.706 Y  56.762
G1 Z 135.500
G0 Z 190.000 
G40
G0 X 150.000 Y   0.000
M9 (Coolant off)
M5 (Spindle off)
M2 (Prgram end)
